!!!OTL: op18_no1_mvmnt2_all
**kern	**dynam	**kern	**dynam	**kern	**dynam	**kern	**dynam	**mxhm
*part4	*part4	*part3	*part3	*part2	*part2	*part1	*part1	*part1
*staff4	*	*staff3	*	*staff2	*	*staff1	*	*
*I"Cello	*	*I"Viola	*	*I"Violin II	*	*I"Violin I	*	*
*I'Vc.	*	*I'Vla.	*	*I'Vln. II	*	*I'Vln. I	*	*
*clefF4	*	*clefC3	*	*clefG2	*	*clefG2	*	*
*k[b-]	*	*k[b-]	*	*k[b-]	*	*k[b-]	*	*
*d:	*	*d:	*	*d:	*	*d:	*	*
*M9/8	*	*M9/8	*	*M9/8	*	*M9/8	*	*
=1	=1	=1	=1	=1	=1	=1	=1	=1
!	!	!	!LO:DY:a	!	!	!	!	!
8D'L	pp	8F'L	pp pp	8A'L	.	8%9r	.	C none
8D'	.	8F'	.	8A'	.	.	.	.
8D'J	.	8F'J	.	8A'J	.	.	.	.
8F'L	.	8A'L	.	8d'L	.	.	.	.
8F'	.	8A'	.	8d'	.	.	.	.
8F'J	.	8A'J	.	8d'J	.	.	.	.
8E'L	.	8G'L	.	8c#X'L	.	.	.	.
8E'	.	8G'	.	8c#'	.	.	.	.
8E'J	.	8G'J	.	8c#'J	.	.	.	.
=2	=2	=2	=2	=2	=2	=2	=2	=2
8DL	.	8FL	.	8dL	.	[2.a	pp	C none
8D	.	8F	.	8A	.	.	.	.
8DJ	.	8FJ	.	8AJ	.	.	.	.
8FL	.	8AL	.	8dL	.	.	.	.
8F	.	8A	.	8d	.	.	.	.
8FJ	.	8AJ	.	8dJ	.	.	.	.
8EL	.	8GL	.	8c#XL	.	4.a_	.	C none
8E	.	8G	.	8c#	.	.	.	.
8EJ	.	8GJ	.	8c#J	.	.	.	.
=3	=3	=3	=3	=3	=3	=3	=3	=3
8DL	.	8FL	.	8dL	.	4.a]	.	C none
8D	.	8F	.	8A	.	.	.	.
8DJ	.	8FJ	.	8AJ	.	.	.	.
8FL	.	8AL	.	8dL	.	4.dd	.	C none
8F	.	8A	.	8d	.	.	.	.
8FJ	.	8AJ	.	8dJ	.	.	.	.
8AL	.	8c#XL	.	8AL 8e	.	4.ee	.	C none
8A	.	8c#	.	8A 8e	.	.	.	.
8AJ	.	8c#J	.	8AJ 8e	.	.	.	.
=4	=4	=4	=4	=4	=4	=4	=4	=4
8dL	.	8dL	.	8fL	.	[4.ff	.	C none
8D	.	8F	.	8A	.	.	.	.
8DJ	.	8FJ	.	8AJ	.	.	.	.
8DL	.	8FL	.	8AL	.	4ff]	.	.
8D	.	8F	.	8A	.	.	.	.
8DJ	.	8FJ	.	8AJ	.	16eeLL	.	.
.	.	.	.	.	.	16ddJJ	.	.
8DL	.	8FL	.	8B-L	.	16ddLL	.	C none
.	.	.	.	.	.	32eeL	.	.
.	.	.	.	.	.	32ddJ	.	.
8D	.	8F	.	8B-	.	16cc#X	.	.
.	.	.	.	.	.	16dd	.	.
8DJ	.	8FJ	.	8B-J	.	16ff	.	.
.	.	.	.	.	.	16eeJJ	.	.
=5	=5	=5	=5	=5	=5	=5	=5	=5
8EL	.	8GL	.	8B-L	.	4.dd	.	C none
8E	.	8G	.	8B-	.	.	.	.
8EJ	.	8GJ	.	8B-J	.	.	.	.
8EL	.	8GL	.	8B-L	.	[4.cc#X	.	C none
8E	.	8G	.	8b-	.	.	.	.
8EJ	.	8GJ	.	8b-J	.	.	.	.
8EL	.	8GL	.	8b-L	.	8cc#L]	.	.
8E	.	8G	.	8g	.	16cc#L	.	.
.	.	.	.	.	.	16dd	.	.
8EJ	.	8GJ	.	8eJ	.	16ee	.	.
.	.	.	.	.	.	16ffJJ	.	.
=6	=6	=6	=6	=6	=6	=6	=6	=6
8EL	.	8GL	.	8c#XL	.	[4.gg	.	.
8E	.	8G	.	8c#	.	.	.	.
8EJ	.	8GJ	.	8c#J	.	.	.	.
8EL	.	8GL	.	8c#L	.	8ggL]	.	.
.	.	.	.	.	.	32qqaa/	.	.
8E	.	8G	.	8c#	.	16ggL	.	.
.	.	.	.	.	.	16ff#X	.	.
8EJ	.	8GJ	.	8c#J	.	16gg	.	.
.	.	.	.	.	.	16aaJJ	.	.
8EL	.	8GL	.	8c#L	.	4bb-	.	.
8E	.	8G	.	8c#	.	.	.	.
8EJ	.	8GJ	.	8c#J	.	8cc#X	.	.
=7	=7	=7	=7	=7	=7	=7	=7	=7
8FL	.	8AL	.	8c#XL	.	4.ee	.	C none
8F	.	8A	.	8d	.	.	.	.
8FJ	.	8AJ	.	8dJ	.	.	.	.
8FL	.	8AL	.	8dL	.	[4.dd	.	C none
8F	.	8A	.	8d	.	.	.	.
8FJ	.	8AJ	.	8dJ	.	.	.	.
8FL	.	8AL	.	8dL	.	8ddL]	.	.
8E	.	8G	.	8c#	.	8ee	.	C none
8DJ	.	8FJ	.	8dJ	.	8ffJ	.	C none
=8	=8	=8	=8	=8	=8	=8	=8	=8
!LO:TX:b:Bi:t=Cresc.	!	!LO:TX:b:Bi:t=Cresc.	!	!LO:TX:b:Bi:t=Cresc.	!	!LO:TX:b:Bi:t=Cresc.	!	!
8GL	.	8B-L	.	8dL	.	4.ff	.	C none
8GG	.	8B-	.	8d	.	.	.	.
8GGJ	.	8B-J	.	8dJ	.	.	.	.
8GGL	.	8B-L	.	8dL	.	[4.ee	.	C none
8GG	.	8B-	.	8d	.	.	.	.
8GGJ	.	8B-J	.	8dJ	.	.	.	.
8GG#XL	.	8BnL	.	8dL	.	8eeL]	.	C none
8GG#	.	8B	.	8d	.	8ff	.	.
8GG#J	.	8BJ	.	8dJ	.	8ddJ	.	.
=9	=9	=9	=9	=9	=9	=9	=9	=9
4AA	p	8EL	p	4c#X	p	4cc#X	p	C none
.	.	8A	.	.	.	.	.	.
8r	.	8A'J	.	8r	.	8r	.	.
8r	.	[4.A	.	8r	.	8r	.	.
8C#XL	.	.	.	8aL	.	8aaL	.	C none
8EJ	.	.	.	8gJ	.	8ggJ	.	.
8DL	.	8AL]	.	8fL	.	8ffL	.	C none
8GG	.	8B-	.	8e	.	8ee	.	C none
8GG#XJ	.	8BnJ	.	8dJ	.	8ddJ	.	C none
=10	=10	=10	=10	=10	=10	=10	=10	=10
8AAL	.	[4.E	.	4c#X	.	4cc#X	.	C none
8BB-	.	.	.	.	.	.	.	.
8GG#XJ	.	.	.	8r	.	8r	.	.
8AAL	.	8EL]	.	4a	.	4aa	.	C none
8C#X	.	8A'	.	.	.	.	.	.
8EJ	.	8A'J	.	8g	.	8gg	.	.
8DL	.	8AL	.	8fL	.	8ffL	.	C none
8GGn	.	8B-	.	8e	.	8ee	.	C none
8GG#XJ	.	8BnJ	.	8dJ	.	8ddJ	.	C none
=11	=11	=11	=11	=11	=11	=11	=11	=11
4AA	.	4E	.	4c#X	.	4cc#X	.	C none
8r	.	8r	.	8r	.	8r	.	.
4r	.	4r	.	4r	.	4r	.	.
8r	.	8r	.	8r	.	8r	.	.
[4.A	pp	4.d	pp	4.f	pp	4.b-	pp	C none
=12	=12	=12	=12	=12	=12	=12	=12	=12
4A]	.	4c#X	.	4e	.	4a	.	C none
8r	.	8r	.	8r	.	8r	.	.
4r	.	4r	.	4r	.	4r	.	.
8r	.	8r	.	8r	.	8r	.	.
!	!	!	!LO:DY:a	!	!LO:DY:a	!	!	!
4.BB-	sf	4.B-	sf sf	4.B-	sf	4.B-	.	C none
=13	=13	=13	=13	=13	=13	=13	=13	=13
!	!	!	!LO:DY:a	!	!LO:DY:a	!	!	!
8AAL	p	[4A	p p	4A	p	8AL	.	C none
8C#X	.	.	.	.	.	8c#X	.	.
8EJ	.	8AL]	.	8r	.	8eJ	.	.
!LO:TX:b:Bi:t=Cresc.	!	!	!	!	!	!	!	!
[4.A	.	8G	.	8r	.	8aL	.	.
!	!	!LO:TX:b:Bi:t=Cresc.	!	!	!	!	!	!
!	!	!LO:TX:a:Bi:t=Cresc.	!	!LO:TX:a:Bi:t=Cresc.	!	!	!	!
.	.	8FJ	.	8c#XL	.	16B-L	.	.
.	.	.	.	.	.	16A	.	.
.	.	8EL	.	8dJ	.	16B-	.	.
.	.	.	.	.	.	16AJJ	.	.
8AL]	.	8D	.	8eL	.	16c#LL	.	.
.	.	.	.	.	.	16A	.	.
8A'	.	8C#XJ	.	8f	.	16d	.	.
.	.	.	.	.	.	16A	.	.
8A'J	.	8ryy	.	8gJ	.	16e	.	.
.	.	.	.	.	.	16AJJ	.	.
*clefG2	*	*	*	*	*	*	*	*
=14	=14	=14	=14	=14	=14	=14	=14	=14
[2.A	pp	8D'L	pp	8f'L	pp	8dL	pp	C none
.	.	8D'	.	8f'	.	8a'	.	.
.	.	8D'J	.	8f'J	.	8a'J	.	.
.	.	8FL	.	8dL	.	8a'L	.	C none
.	.	8F	.	8d	.	8a'	.	.
.	.	8FJ	.	8dJ	.	8a'J	.	.
4.A_	.	8EL	.	8gL	.	8cc#X'L	.	C none
.	.	8E	.	8g	.	8cc#'	.	.
.	.	8EJ	.	8gJ	.	8cc#'J	.	.
=15	=15	=15	=15	=15	=15	=15	=15	=15
4.A]	.	8DL	.	8fL	.	8ddL	.	C none
.	.	8D	.	8f	.	8a	.	.
.	.	8DJ	.	8fJ	.	8aJ	.	.
4.d	.	8FL	.	8dL	.	8aL	.	C none
.	.	8F	.	8d	.	8a	.	.
.	.	8FJ	.	8dJ	.	8aJ	.	.
4.e	.	8AL	.	8gL	.	8cc#XL	.	C none
.	.	8A	.	8g	.	8cc#	.	.
.	.	8AJ	.	8gJ	.	8cc#J	.	.
=16	=16	=16	=16	=16	=16	=16	=16	=16
[2.f	p	8DL	p	4.a	p	4dd	p	C none
.	.	8d	.	.	.	.	.	.
.	.	8dJ	.	.	.	8r	.	C none
.	.	8dL	.	4.b-	.	4r	.	.
.	.	8d	.	.	.	.	.	.
.	.	8dJ	.	.	.	8r	.	.
8fL]	.	8d-XL	.	4.bn	.	4r	.	C none
8a-X	.	8d-	.	.	.	.	.	.
8gJ	.	8d-J	.	.	.	8r	.	.
=17	=17	=17	=17	=17	=17	=17	=17	=17
[4.f	.	8CL	.	8ccL	.	[2.bb-	.	C none
.	.	8C	.	8g	.	.	.	.
.	.	8CJ	.	8gJ	.	.	.	.
8fL]	.	8CL	.	8gL	.	.	.	.
8e	.	8C	.	8g	.	.	.	.
8d-XJ	.	8CJ	.	8gJ	.	.	.	.
8cL	.	8CL	.	8gL	.	8bb-L]	.	.
8B-	.	8C	.	8ee	.	8ddd-X	.	.
8GJ	.	8CJ	.	8eeJ	.	8cccJ	.	.
*clefF4	*	*	*	*	*	*	*	*
=18	=18	=18	=18	=18	=18	=18	=18	=18
4.G-X	.	8cL	.	[2.ee-X	.	4.bb-	.	C none
.	.	8c	.	.	.	.	.	.
.	.	8cJ	.	.	.	.	.	.
8FL	.	8cL	.	.	.	8aaL	.	C none
8FF	.	8c	.	.	.	8gg-X	.	.
8FFJ	.	8cJ	.	.	.	8ffJ	.	.
8FFL	.	8cL	.	8ee-L]	.	8ee-XL	.	.
8FF	.	8e-X	.	8gg-X	.	8cc	.	.
8FFJ	.	8cJ	.	8ffJ	.	8aJ	.	.
=19	=19	=19	=19	=19	=19	=19	=19	=19
!LO:TX:b:Bi:t=Cresc.	!	!LO:TX:b:Bi:t=Cresc.	!	!LO:TX:b:Bi:t=Cresc.	!	!LO:TX:b:Bi:t=Cresc.	!	!
8BB-L	.	[2F	.	4.ee-X	.	4.a-X	.	C none
8BB-	.	.	.	.	.	.	.	.
8BB-J	.	.	.	.	.	.	.	.
8BB-L	.	.	.	[4dd	.	[4aa-X	.	C none
8BB-	.	8FL]	.	.	.	.	.	.
8BB-J	.	8d	.	8ddL]	.	16aa-LL]	.	.
.	.	.	.	.	.	16gg	.	.
8BBnL	.	8dJ	.	8A-X 8f	.	16bb-	.	C none
.	.	.	.	.	.	16aa-	.	.
8BB	.	4ryy	.	8A-J 8f	.	16gg	.	.
.	.	.	.	.	.	16ffJJ	.	.
8BBJ	.	.	.	8ryy	.	8ryy	.	.
=20	=20	=20	=20	=20	=20	=20	=20	=20
4C	.	4c	.	8G 8e	.	4ee	.	C none
.	.	.	.	8bnL	.	.	.	.
8r	.	4r	.	8ccJ	pp	8r	.	.
4r	.	.	.	8f#XL	.	4r	.	.
.	.	12%5.ryy	.	8g	.	.	.	.
8r	.	.	.	8d#XJ	.	8r	.	.
4r	.	.	.	8eL	.	4r	.	.
.	.	.	.	8Bn	.	.	.	.
8r	.	.	.	8cJ	.	8r	.	.
=21	=21	=21	=21	=21	=21	=21	=21	=21
8%9r	.	4r	.	[2.d-X	.	8r	.	C none
.	.	.	.	.	.	8eeL	.	.
.	.	8r	.	.	.	8ffJ	pp	.
.	.	8r	.	.	.	8a	.	.
.	.	8eL	.	.	.	[4b-	.	.
.	.	8fJ	pp	.	.	.	.	.
.	.	8gL	.	8d-L]	.	8b-L]	.	.
.	.	8a-X	.	8d-'	.	8bn'	.	C none
.	.	8fJ	.	8d-'J	.	8b'J	.	.
=22	=22	=22	=22	=22	=22	=22	=22	=22
8CL	pp	4e	.	4c	.	4cc	.	C none
8Bn	.	.	.	.	.	.	.	.
8cJ	.	8r	.	8r	.	8r	.	.
8F#XL	.	4r	.	4r	.	4r	.	.
8G	.	.	.	.	.	.	.	.
8D#XJ	.	8r	.	8r	.	8r	.	.
8EL	.	4r	.	4r	.	4r	.	.
8BBn	.	.	.	.	.	.	.	.
8CJ	.	8r	.	8r	.	8r	.	.
=23	=23	=23	=23	=23	=23	=23	=23	=23
[2.BB-	.	8CL	.	4r	.	8r	.	C none
.	.	8E	.	.	.	8bbnL	.	.
.	.	8GJ	.	8r	.	8cccJ	.	.
.	.	8CL	.	4.ryy	.	8ff#XL	.	.
.	.	8E	.	.	.	8gg	.	.
.	.	8GJ	.	.	.	8dd#XJ	.	.
4.BB-]	.	8CL	.	16r	.	8eeL	.	.
.	.	.	.	16cLL	.	.	.	.
.	.	8E	.	16Bn	.	8bn	.	.
.	.	.	.	16c	.	.	.	.
.	.	8GJ	.	16e	.	8ccJ	.	.
.	.	.	.	16gJJ	.	.	.	.
=24	=24	=24	=24	=24	=24	=24	=24	=24
2.AA	.	8CL	.	4a	.	8r	.	C none
.	.	8F	.	.	.	8bbnL	.	.
.	.	8AJ	.	8r	.	8cccJ	.	.
.	.	8CL	.	4r	.	8gg#XL	.	.
.	.	8F	.	.	.	8aa	.	.
.	.	8AJ	.	8r	.	8eeJ	.	.
4.AA	.	8CL	.	16r	.	8ffL	.	.
.	.	.	.	16cLL	.	.	.	.
.	.	8F	.	16Bn	.	8bn	.	.
.	.	.	.	16c	.	.	.	.
.	.	8AJ	.	16f	.	8ccJ	.	.
.	.	.	.	16aJJ	.	.	.	.
=25	=25	=25	=25	=25	=25	=25	=25	=25
!LO:TX:b:Bi:t=Cresc.	!	!	!	!	!	!	!	!
2.EE	.	8CL	.	4b-	.	8r	.	C none
!	!	!LO:TX:b:Bi:t=Cresc.	!	!	!	!	!	!
.	.	8G	.	.	.	8aaL	.	.
!	!	!	!	!	!	!LO:TX:b:Bi:t=Cresc.	!	!
.	.	8B-J	.	8r	.	8bb-J	.	.
.	.	8CL	.	4r	.	8ggL	.	.
.	.	8G	.	.	.	8ee	.	.
.	.	8B-J	.	8r	.	8b-J	.	.
4.CC	.	8CL	.	16r	.	8gL	.	C none
.	.	.	.	16eLL	.	.	.	.
!	!	!	!	!LO:TX:b:Bi:t=Cresc.	!	!	!	!
.	.	8G	.	16cc	.	8e	.	.
.	.	.	.	16b-	.	.	.	.
.	.	8B-J	.	16cc	.	8B-J	.	.
.	.	.	.	16b-JJ	.	.	.	.
=26	=26	=26	=26	=26	=26	=26	=26	=26
4FF	p	8EL	p	4.cc	p	4A	p	C none
.	.	8c	.	.	.	.	.	.
8r	.	8cJ	.	.	.	8r	.	.
4r	.	8gL	.	4.b-	.	4r	.	C none
.	.	8c	.	.	.	.	.	.
8r	.	8cJ	.	.	.	8r	.	.
4r	.	8fL	.	8a	.	4r	.	C none
.	.	.	.	32qqb-/	.	.	.	.
.	.	8c	.	16aLL	.	.	.	.
.	.	.	.	16g	.	.	.	.
8r	.	8cJ	.	16a	.	8r	.	.
.	.	.	.	16b-JJ	.	.	.	.
=27	=27	=27	=27	=27	=27	=27	=27	=27
4.B-	.	8eL	.	4g	.	4.ddd	.	C none
.	.	8c	.	.	.	.	.	.
.	.	8cJ	.	8r	.	.	.	.
4.A	.	8fL	.	4r	.	4.ccc	.	C none
.	.	8c	.	.	.	.	.	.
.	.	8cJ	.	8r	.	.	.	.
.	.	.	.	.	.	8qqccc/	.	C none
4.E	.	8gL	.	4r	.	8bb-L	.	.
.	.	8c	.	.	.	16bb-L	.	.
.	.	.	.	.	.	16aa	.	.
.	.	8cJ	.	8r	.	16bb-	.	.
.	.	.	.	.	.	16cccJJ	.	.
=28	=28	=28	=28	=28	=28	=28	=28	=28
4F	.	8aL	.	8ccL	.	4aa	.	C none
.	.	8c	.	16ffL	.	.	.	.
.	.	.	.	16ee	.	.	.	.
8r	.	8cJ	.	16dd	.	8r	.	.
.	.	.	.	16ccJJ	.	.	.	.
4r	.	8eL	.	16ccLL	.	4r	.	C none
.	.	.	.	16b-	.	.	.	.
.	.	8c	.	16gg	.	.	.	.
.	.	.	.	16ee	.	.	.	.
8r	.	8cJ	.	16cc	.	8r	.	.
.	.	.	.	16b-JJ	.	.	.	.
4r	.	8fL	.	16b-LL	.	4r	.	C none
.	.	.	.	16a	.	.	.	.
.	.	8c	.	16ff	.	.	.	.
.	.	.	.	16cc	.	.	.	.
8r	.	8cJ	.	16b-	.	8r	.	.
.	.	.	.	16aJJ	.	.	.	.
=29	=29	=29	=29	=29	=29	=29	=29	=29
4.B-	.	4.e	.	8gL	.	8dddL	.	C none
.	.	.	.	8c	.	16gggL	.	.
.	.	.	.	.	.	16fff	.	.
.	.	.	.	8c'J	.	16eee	.	.
.	.	.	.	.	.	16dddJJ	.	.
4.A	.	4.f	.	8aL	.	16dddLL	.	C none
.	.	.	.	.	.	16ccc	.	.
.	.	.	.	8c	.	16fff	.	.
.	.	.	.	.	.	16eee	.	.
.	.	.	.	8c'J	.	16ddd	.	.
.	.	.	.	.	.	16cccJJ	.	.
4.E	.	4.g	.	8b-L	.	16cccLL	.	C none
.	.	.	.	.	.	16bb-	.	.
.	.	.	.	8c	.	16ggg	.	.
.	.	.	.	.	.	16eee	.	.
.	.	.	.	8c'J	.	16ccc	.	.
.	.	.	.	.	.	16bb-JJ	.	.
=30	=30	=30	=30	=30	=30	=30	=30	=30
4F	.	4f	.	4c 4a	.	16aaLL	.	C none
.	.	.	.	.	.	16gg#X	.	.
.	.	.	.	.	.	16aa	.	.
.	.	.	.	.	.	16ggn	.	.
8r	.	8r	.	4r	.	16ff	.	.
.	.	.	.	.	.	16eeJJ	.	.
4r	.	4r	.	.	.	16ddLL	.	C none
.	.	.	.	.	.	16cc#X	.	.
.	.	.	.	4r	.	16dd	.	.
.	.	.	.	.	.	16ccn	.	.
8r	.	8r	.	.	.	16b-	.	.
.	.	.	.	.	.	16aJJ	.	.
4r	.	4r	.	4.ryy	.	16gLL	.	C none
.	.	.	.	.	.	16f#X	.	.
.	.	.	.	.	.	16g	.	.
.	.	.	.	.	.	16fn	.	.
8r	.	8r	.	.	.	16e	.	.
.	.	.	.	.	.	16dJJ	.	.
=31	=31	=31	=31	=31	=31	=31	=31	=31
16ALL	.	[4.A	.	4r	.	4c#X	.	C none
16G#X	.	.	.	.	.	.	.	.
16A	.	.	.	.	.	.	.	.
16Gn	.	.	.	.	.	.	.	.
16F	.	.	.	8r	.	16dLL	.	.
16EJJ	.	.	.	.	.	16eJJ	.	.
16DLL	.	4A]	.	4d	.	4f	.	C none
16C#X	.	.	.	.	.	.	.	.
16D	.	.	.	.	.	.	.	.
16Cn	.	.	.	.	.	.	.	.
16BB-	.	16dLL	.	16eLL	.	16gLL	.	.
16AAJJ	.	16cJJ	.	16f#XJJ	.	16aJJ	.	.
16GGLL	.	16B-LL	.	[4.g	.	[4.b-	.	C none
16FF#X	.	16A	.	.	.	.	.	.
16GG	.	16B-	.	.	.	.	.	.
16FFn	.	16A	.	.	.	.	.	.
16EE	.	16G	.	.	.	.	.	.
16DDJJ	.	16FJJ	.	.	.	.	.	.
=32	=32	=32	=32	=32	=32	=32	=32	=32
!LO:TX:b:Bi:t=Cresc.	!	!LO:TX:b:Bi:t=Cresc.	!	!LO:TX:b:Bi:t=Cresc.	!	!LO:TX:b:Bi:t=Cresc.	!	!
4.CC	.	16ELL	.	16gLL_	.	2.b-]	.	C none
.	.	16F	.	16f	.	.	.	.
.	.	16G	.	16e	.	.	.	.
.	.	16F	.	16f	.	.	.	.
.	.	16E	.	16g]	.	.	.	.
.	.	16FJJ	.	16fJJ	.	.	.	.
4.C	.	16GLL	.	16eLL	.	.	.	.
.	.	16F	.	16f	.	.	.	.
.	.	16E	.	16g	.	.	.	.
.	.	16F	.	16f	.	.	.	.
.	.	16G	.	16e	.	.	.	.
.	.	16EJJ	.	16gJJ	.	.	.	.
4.D-X	.	16FLL	.	4.f	.	4.a-X	.	C none
.	.	16E	.	.	.	.	.	.
.	.	16F	.	.	.	.	.	.
.	.	16G	.	.	.	.	.	.
.	.	16A-X	.	.	.	.	.	.
.	.	16FJJ	.	.	.	.	.	.
=33	=33	=33	=33	=33	=33	=33	=33	=33
4.BB-	.	4.D-X	.	16d-XLL	.	4.g-X	.	C none
.	.	.	.	16c	.	.	.	.
.	.	.	.	16d-	.	.	.	.
.	.	.	.	16c	.	.	.	.
.	.	.	.	16d-	.	.	.	.
.	.	.	.	16cJJ	.	.	.	.
!	!	!	!LO:DY:a	!	!	!	!	!
4.D-X	sf	16FLL	sf sf	4.Bn	.	[4.f	sf	C none
.	.	16E	.	.	.	.	.	.
.	.	16F	.	.	.	.	.	.
.	.	16E	.	.	.	.	.	.
.	.	16F	.	.	.	.	.	.
.	.	16EJJ	.	.	.	.	.	.
4.C	.	4c	.	4.B-X	.	8fL]	.	C none
.	.	.	.	.	.	8gn	.	C none
.	.	8c	.	.	.	8eJ	.	.
=34	=34	=34	=34	=34	=34	=34	=34	=34
!	!	!	!LO:DY:a	!	!	!	!	!
4FF'	p	16ccLL	p p	4A	.	4f	p	C none
.	.	16bn	.	.	.	.	.	.
.	.	16cc	.	.	.	.	.	.
.	.	16b-X	.	.	.	.	.	.
8r	.	16a	.	8r	.	8r	.	.
.	.	16gJJ	.	.	.	.	.	.
4r	.	16fLL	.	16aaLL	.	4r	.	.
.	.	16e	.	16gg#X	.	.	.	.
.	.	16f	.	16aa	.	.	.	.
.	.	16e-X	.	16ggn	.	.	.	.
8r	.	16d	.	16ff	.	16dddLL	.	.
.	.	16cJJ	.	16eeJJ	.	16ccc#X	.	.
4BB-	.	16B-LL	.	16ddLL	.	16ddd	.	C none
.	.	16A	.	16cc#X	.	16cccn	.	.
.	.	16B-	.	16dd	.	16bb-	.	.
.	.	16A	.	16ccn	.	16aaJJ	.	.
16CLL	.	16G	.	16b-	.	8r	.	.
16DJJ	.	16FJJ	.	16aJJ	.	.	.	.
=35	=35	=35	=35	=35	=35	=35	=35	=35
16E-XLL	.	8E-XL	.	8gL	.	[4.gg	.	C none
16D	.	.	.	.	.	.	.	.
16E-	.	8B-	.	8e-X	.	.	.	.
16D	.	.	.	.	.	.	.	.
16C	.	8B-J	.	8e-'J	.	.	.	.
16BB-JJ	.	.	.	.	.	.	.	.
16AALL	.	2.c	.	2.e-	.	4.gg-X	.	C none
16BB-	.	.	.	.	.	.	.	.
16AA	.	.	.	.	.	.	.	.
16BB-	.	.	.	.	.	.	.	.
16C	.	.	.	.	.	.	.	.
16BB-JJ	.	.	.	.	.	.	.	.
16AALL	.	.	.	.	.	[4.ff	.	C none
16GG#X	.	.	.	.	.	.	.	.
16AA	.	.	.	.	.	.	.	.
16FF	.	.	.	.	.	.	.	.
16GG#	.	.	.	.	.	.	.	.
16AAJJ	.	.	.	.	.	.	.	.
=36	=36	=36	=36	=36	=36	=36	=36	=36
!LO:TX:b:Bi:t=Cresc.	!	!LO:TX:b:Bi:t=Cresc.	!	!LO:TX:b:Bi:t=Cresc.	!	!LO:TX:b:Bi:t=Cresc.	!	!
16BB-LL	.	8.B-L	.	8d-XL	.	8ffL]	.	C none
16AA	.	.	.	.	.	.	.	.
16BB-	.	.	.	8dd-X	.	8bb-	.	.
16AA-X	.	16fL	.	.	.	.	.	.
16GG	.	16en	.	8dd-'J	.	8bb-'J	.	.
16FFJJ	.	16fJJ	.	.	.	.	.	.
16EELL	.	4.g	.	2.cc	.	4.bb-	.	C none
16CC	.	.	.	.	.	.	.	.
16EE	.	.	.	.	.	.	.	.
16GG	.	.	.	.	.	.	.	.
16C	.	.	.	.	.	.	.	.
16EJJ	.	.	.	.	.	.	.	.
16FLL	.	4.f	.	.	.	4.aa-X	.	C none
16E	.	.	.	.	.	.	.	.
16F	.	.	.	.	.	.	.	.
16G	.	.	.	.	.	.	.	.
16A-X	.	.	.	.	.	.	.	.
16FJJ	.	.	.	.	.	.	.	.
=37	=37	=37	=37	=37	=37	=37	=37	=37
4.BB-	.	4.B-	.	16dd-XLL	.	4.gg-X	.	C none
.	.	.	.	16cc	.	.	.	.
.	.	.	.	16dd-	.	.	.	.
.	.	.	.	16cc	.	.	.	.
.	.	.	.	16dd-	.	.	.	.
.	.	.	.	16ccJJ	.	.	.	.
4.D-X	sf	16FLL	sf	4.bn	sf	[4.ff	sf	C none
.	.	16E	.	.	.	.	.	.
.	.	16F	.	.	.	.	.	.
.	.	16E	.	.	.	.	.	.
.	.	16F	.	.	.	.	.	.
.	.	16A-XJJ	.	.	.	.	.	.
4.C	.	4c	.	4.b-X	.	8ffL]	.	C none
.	.	.	.	.	.	8gg]	.	C none
.	.	8c	.	.	.	8eeJ	.	.
=38	=38	=38	=38	=38	=38	=38	=38	=38
8FFL	p	4.cc	p	8aL	p	8ffL	p	C none
8F	.	.	.	8A	.	8c	.	.
8FJ	.	.	.	8AJ	.	8cJ	.	.
4F	.	16bnLL	.	4A	.	4c	.	.
.	.	16cc	.	.	.	.	.	.
.	.	16dd	.	.	.	.	.	.
.	.	16cc	.	.	.	.	.	.
8r	.	16g#X	.	8r	.	8r	.	.
.	.	16aJJ	.	.	.	.	.	.
4r	.	16b-XLL	.	4r	.	4r	.	C none
.	.	16a	.	.	.	.	.	.
.	.	16e	.	.	.	.	.	.
.	.	16f	.	.	.	.	.	.
8r	.	16gn	.	8r	.	8r	.	.
.	.	16fJJ	.	.	.	.	.	.
=39	=39	=39	=39	=39	=39	=39	=39	=39
8FFL	.	8B-L	.	4.gg	.	8eL	.	C none
8F	.	8B-	.	.	.	8e	.	.
8FJ	.	8B-J	.	.	.	8eJ	.	.
4F	.	4B-	.	16ff#XLL	.	4e	.	.
.	.	.	.	16gg	.	.	.	.
.	.	.	.	16aa	.	.	.	.
.	.	.	.	16gg	.	.	.	.
8r	.	8r	.	16dd#X	.	8r	.	.
.	.	.	.	16eeJJ	.	.	.	.
4r	.	4r	.	16ffnLL	.	4r	.	.
.	.	.	.	16ee	.	.	.	.
.	.	.	.	16bn	.	.	.	.
.	.	.	.	16cc	.	.	.	.
8r	.	8r	.	16ddn	.	8r	.	.
.	.	.	.	16ccJJ	.	.	.	.
=40	=40	=40	=40	=40	=40	=40	=40	=40
8FL	.	8aL	.	8ccL	.	4.ccc	.	C none
8f	.	8a	.	8cc	.	.	.	.
8fJ	.	8aJ	.	8ccJ	.	.	.	.
4f	.	4a	.	4cc	.	16bbnLL	.	.
.	.	.	.	.	.	16ccc	.	.
.	.	.	.	.	.	16ddd	.	.
.	.	.	.	.	.	16ccc	.	.
8r	.	8r	.	8r	.	16gg#X	.	.
.	.	.	.	.	.	16aaJJ	.	.
4r	.	4r	.	4r	.	16bb-XLL	.	.
.	.	.	.	.	.	16aa	.	.
.	.	.	.	.	.	16ee	.	.
.	.	.	.	.	.	16ff	.	.
8r	.	8r	.	8r	.	16ggn	.	.
.	.	.	.	.	.	16ffJJ	.	.
=41	=41	=41	=41	=41	=41	=41	=41	=41
8%9r	.	8%9r	.	8%9r	.	16cc#XLL	.	C none
.	.	.	.	.	.	16dd	.	.
.	.	.	.	.	.	16ee	.	.
.	.	.	.	.	.	16dd	.	.
.	.	.	.	.	.	16a	.	.
.	.	.	.	.	.	16b-JJ	.	.
.	.	.	.	.	.	16ccnLL	.	C none
.	.	.	.	.	.	16b-	.	.
.	.	.	.	.	.	16f#X	.	.
.	.	.	.	.	.	16g	.	.
.	.	.	.	.	.	16a	.	.
.	.	.	.	.	.	16gJJ	.	.
.	.	.	.	.	.	16f#LL	.	C none
.	.	.	.	.	.	16g	.	.
.	.	.	.	.	.	16a	.	.
.	.	.	.	.	.	16g	.	.
.	.	.	.	.	.	16f#	.	.
.	.	.	.	.	.	16gJJ	.	.
=42	=42	=42	=42	=42	=42	=42	=42	=42
[2.C	pp	4G	.	4r	.	4b-	.	C none
.	.	8F	pp	8r	.	8a	pp	C none
.	.	4E	.	4g	.	[4.g	.	C none
.	.	8D	.	8f	pp	.	.	.
4C]	.	4C	.	4e	.	8gL]	.	.
.	.	.	.	.	.	8a	.	.
8BB-	.	8E	.	8G	.	8b-J	.	C none
=43	=43	=43	=43	=43	=43	=43	=43	=43
4AA	.	4F	.	4c	.	4cc	.	C none
!LO:TX:b:Bi:t=Cresc.	!	!LO:TX:b:Bi:t=Cresc.	!	!LO:TX:b:Bi:t=Cresc.	!	!LO:TX:b:Bi:t=Cresc.	!	!
8GG	.	8B-	.	16dLL	.	16ddLL	.	.
.	.	.	.	16eJJ	.	16eeJJ	.	C none
4FF	.	[4.A	.	[4.f	.	[4.ff	.	C none
8EE	.	.	.	.	.	.	.	.
4DD	.	8AL]	.	8fL]	.	8ffL]	.	C none
.	.	8d	.	8f	.	8a	.	.
8CC#X	.	8eJ	.	8gJ	.	8aJ	.	C none
=44	=44	=44	=44	=44	=44	=44	=44	=44
8DDL	p	4d	p	4f	p	4a	p	C none
8D	.	.	.	.	.	.	.	.
.	.	.	.	.	.	16qqcc/LL	.	C none
.	.	.	.	.	.	16qqb-/	.	.
.	.	.	.	.	.	16qqa/	.	.
.	.	.	.	.	.	16qqb-/JJ	.	.
8BB-J	.	8d	.	8g	.	16ccLL	.	.
.	.	.	.	.	.	16b-JJ	.	.
4.C	.	4.c	.	4.f	.	[4.a	.	C none
4.CC	.	4.B-	.	4.e	.	8.aL]	.	C none
.	.	.	.	.	.	16gL	.	C none
.	.	.	.	.	.	16.dd	.	.
.	.	.	.	.	.	32ccJJk	.	.
=45	=45	=45	=45	=45	=45	=45	=45	=45
4FF	.	4A	.	4c	.	4f	.	C none
8r	pp	8r	pp	8r	pp	8r	pp	.
4F	.	4A	.	4c	.	4f	.	C none
8r	.	8r	.	8r	.	8r	.	.
4r	.	4r	.	4r	.	4r	.	.
8r	.	8r	.	8r	.	8r	.	.
=46	=46	=46	=46	=46	=46	=46	=46	=46
4E-X	.	4c	.	4A 4f	.	4.ccc	.	C none
8r	pp	8r	pp	8r	pp	.	.	.
4e-X	.	4cc	.	4a 4ff	.	16bbnLL	pp	.
.	.	.	.	.	.	16ccc	.	.
.	.	.	.	.	.	16ddd	.	.
.	.	.	.	.	.	16ccc	.	.
8r	.	8r	.	8r	.	16gg#X	.	.
.	.	.	.	.	.	16aaJJ	.	.
4r	.	4r	.	4.r	.	16bb-XLL	.	.
.	.	.	.	.	.	16aa	.	.
.	.	.	.	.	.	16ee	.	.
.	.	.	.	.	.	16ff	.	.
8r	.	8r	.	.	.	16ggn	.	.
.	.	.	.	.	.	16ffJJ	.	.
=47	=47	=47	=47	=47	=47	=47	=47	=47
4D	.	4c	.	4A 4f#X	.	4.ccc	.	C none
8r	.	8r	.	8r	.	.	.	.
4d	.	4cc	.	4a 4ff#X	.	16bbnLL	.	.
.	.	.	.	.	.	16ccc	.	.
!	!	!	!	!	!	!LO:TX:b:Bi:t=Cresc.	!	!
.	.	.	.	.	.	16gg#X	.	.
.	.	.	.	.	.	16aa	.	.
8r	.	8r	.	8r	.	16ee#X	.	.
.	.	.	.	.	.	16ff#XJJ	.	.
4r	.	4r	.	4r	.	16cc#XLL	.	.
.	.	.	.	.	.	16dd	.	.
.	.	.	.	.	.	16bn	.	.
.	.	.	.	.	.	16ccn	.	.
8r	.	8r	.	8r	.	16a	.	.
.	.	.	.	.	.	16f#XJJ	.	.
=48	=48	=48	=48	=48	=48	=48	=48	=48
8GGL	f	4.D	f	4.d	f	[2.d [2.dd	f	C none
8GG	.	.	.	.	.	.	.	.
8GGJ	.	.	.	.	.	.	.	.
8BB-L	.	4.G	.	4.g	.	.	.	.
8BB-	.	.	.	.	.	.	.	.
8BB-J	.	.	.	.	.	.	.	.
8FF#XL	.	4A	.	4.a	.	4.d] 4.dd]	.	C none
8FF#	.	.	.	.	.	.	.	.
8FF#J	.	8r	.	.	.	.	.	.
=49	=49	=49	=49	=49	=49	=49	=49	=49
8GGL	sf	[4.B-	sf	[4.b-	sf	32ddLLL	.	C none
.	.	.	.	.	.	32cc#X	.	.
.	.	.	.	.	.	32dd	.	.
.	.	.	.	.	.	32ff#X	.	.
8GG	.	.	.	.	.	32gg	.	.
.	.	.	.	.	.	32ff#	.	.
.	.	.	.	.	.	32gg	.	.
.	.	.	.	.	.	32aaJJ	.	.
8GGJ	.	.	.	.	.	8bb-'J	.	.
8BB-L	.	4B-]	.	4b-]	.	2.d 2.dd	sf	C none
8BB-	.	.	.	.	.	.	.	.
8BB-J	.	16ALL	.	16aLL	.	.	.	.
.	.	16GJJ	.	16gJJ	.	.	.	.
8DL	.	16GLL	.	16gLL	.	.	.	.
.	.	32AL	.	32aL	.	.	.	.
.	.	32GJ	.	32gJ	.	.	.	.
8D	.	16F#X	.	16f	.	.	.	.
.	.	16G	.	16g	.	.	.	.
8DJ	.	16B-	.	16b-	.	.	.	.
.	.	16AJJ	.	16aJJ	.	.	.	.
=50	=50	=50	=50	=50	=50	=50	=50	=50
8AAL	sf	4.G	sf	4.g	sf	32ddLLL	.	C none
.	.	.	.	.	.	32cc#X	.	.
.	.	.	.	.	.	32dd	.	.
.	.	.	.	.	.	32ee	.	.
8AA	.	.	.	.	.	32ff#X	.	.
.	.	.	.	.	.	32ee	.	.
.	.	.	.	.	.	32ff#	.	.
.	.	.	.	.	.	32ggJJ	.	.
8AAJ	.	.	.	.	.	8aa'J	.	.
8CL	.	[4.F#X	.	[4.f#X	.	2.d 2.dd	sf	C none
8C	.	.	.	.	.	.	.	.
8CJ	.	.	.	.	.	.	.	.
8DL	.	8F#L]	.	8f#L]	.	.	.	.
8D	.	16F#L	.	16f#L	.	.	.	.
.	.	16G	.	16g	.	.	.	.
8DJ	.	16A	.	16a	.	.	.	.
.	.	16B-JJ	.	16b-JJ	.	.	.	.
=51	=51	=51	=51	=51	=51	=51	=51	=51
8FF#XL	sf	[4.c	sf	[4.cc	sf	32ddLLL	.	C none
.	.	.	.	.	.	32cc#X	.	.
.	.	.	.	.	.	32dd	.	.
.	.	.	.	.	.	32ee	.	.
8FF#	.	.	.	.	.	32ff#X	.	.
.	.	.	.	.	.	32ee	.	.
.	.	.	.	.	.	32ff#	.	.
.	.	.	.	.	.	32ggJJ	.	.
8FF#J	.	.	.	.	.	8aa'J	.	.
8AAL	.	4c]	.	4cc]	.	2.f#X	.	C none
8AA	.	.	.	.	.	.	.	.
8AAJ	.	16dLL	.	16ddLL	.	.	.	.
.	.	16cJJ	.	16ccJJ	.	.	.	.
8DL	.	16BnLL	.	16bnLL	.	.	.	.
.	.	16c	.	16cc	.	.	.	.
8D	.	16d	.	16dd	.	.	.	.
.	.	16c	.	16cc	.	.	.	.
8DJ	.	16e-X	.	16ee-X	.	.	.	.
.	.	16dJJ	.	16ddJJ	.	.	.	.
=52	=52	=52	=52	=52	=52	=52	=52	=52
8FFL	sf	4.c	sf	4.cc	sf	32ddLLL	.	C none
.	.	.	.	.	.	32cc#X	.	.
.	.	.	.	.	.	32dd	.	.
.	.	.	.	.	.	32ee-X	.	.
8FF	.	.	.	.	.	32ff	.	.
.	.	.	.	.	.	32ee-	.	.
.	.	.	.	.	.	32ff	.	.
.	.	.	.	.	.	32ggJJ	.	.
8FFJ	.	.	.	.	.	8aa-X'J	.	.
8AA-XL	.	[4.Bn	.	[4.bn	.	2.f	sf	C none
8AA-	.	.	.	.	.	.	.	.
8AA-J	.	.	.	.	.	.	.	.
8DL	.	8BL]	.	8bL]	.	.	.	.
8D	.	16BL	.	16bL	.	.	.	.
.	.	16c	.	16cc	.	.	.	.
8C'J	.	16d	.	16dd	.	.	.	.
.	.	16e-XJJ	.	16ee-XJJ	.	.	.	.
=53	=53	=53	=53	=53	=53	=53	=53	=53
!LO:TX:b:Bi:t=Cresc.	!	!LO:TX:b:Bi:t=Cresc.	!	!LO:TX:b:Bi:t=Cresc.	!	!LO:TX:b:Bi:t=Cresc.	!	!
8BBnL	.	[4.f	.	[4.ff	.	32ggLLL	.	C none
.	.	.	.	.	.	32ff#X	.	.
.	.	.	.	.	.	32gg	.	.
.	.	.	.	.	.	32aa	.	.
8BB	.	.	.	.	.	32bbn	.	.
.	.	.	.	.	.	32aa	.	.
.	.	.	.	.	.	32bb	.	.
.	.	.	.	.	.	32cccJJJ	.	.
8BBJ	.	.	.	.	.	8ddd'	.	.
8DL	.	8fL_	.	8ffL]	.	[4.Bn	.	C none
8D	.	16fL]	.	16ffL	.	.	.	.
.	.	16d	.	16dd	.	.	.	.
8DJ	.	16Bn	.	16bn	.	.	.	.
.	.	16GJJ	.	16gJJ	.	.	.	.
8GGL	.	16F#XLL	.	16f#XLL	.	8BL]	.	C none
.	.	16G	.	16g	.	.	.	.
8GG	.	16A-X	.	16a-X	.	8B	.	.
.	.	16G	.	16g	.	.	.	.
8GGJ	.	16Fn	.	16fn	.	8gJ	.	.
.	.	16DJJ	.	16dJJ	.	.	.	.
=54	=54	=54	=54	=54	=54	=54	=54	=54
32CLLL	pp	4E-X	pp	8c'L 8e-X	pp	4.g	pp	C none
32BBn	.	.	.	.	.	.	.	.
32C	.	.	.	.	.	.	.	.
32D	.	.	.	.	.	.	.	.
32E-X	.	.	.	8c' 8e-	.	.	.	.
32D	.	.	.	.	.	.	.	.
32E-	.	.	.	.	.	.	.	.
32FJJ	.	.	.	.	.	.	.	.
8G'J	.	8r	.	8c'J 8e-	.	.	.	.
4r	.	4r	.	4.c 4.e-	.	4.cc	.	C none
8r	.	8r	.	.	.	.	.	.
4r	.	4r	.	4.c 4.e-	.	4.dd	.	.
8r	.	8r	.	.	.	.	.	.
=55	=55	=55	=55	=55	=55	=55	=55	=55
32AA-XLLL	.	4.E-X	.	4.c 4.e-X	.	4ee-X	.	C none
32GG	.	.	.	.	.	.	.	.
32AA-	.	.	.	.	.	.	.	.
32BB-	.	.	.	.	.	.	.	.
32C	.	.	.	.	.	.	.	.
32BBn	.	.	.	.	.	.	.	.
32C	.	.	.	.	.	.	.	.
32DJJ	.	.	.	.	.	.	.	.
8E-X'J	.	.	.	.	.	8r	.	.
4r	.	4.A-X	.	4.c 4.e-	.	4r	.	.
8r	.	.	.	.	.	8r	.	.
4r	.	4.B-	.	4.c 4.e-	.	4r	.	.
8r	.	.	.	.	.	8r	.	.
=56	=56	=56	=56	=56	=56	=56	=56	=56
32FF#XLLL	.	4c	.	4.c 4.d	.	4.dd	.	C none
32EE	.	.	.	.	.	.	.	.
32FF#	.	.	.	.	.	.	.	.
32GG	.	.	.	.	.	.	.	.
32AA	.	.	.	.	.	.	.	.
32GG	.	.	.	.	.	.	.	.
32AA	.	.	.	.	.	.	.	.
32BB-JJ	.	.	.	.	.	.	.	.
8C'J	.	8r	.	.	.	.	.	.
4r	.	4r	.	4.c 4.d	.	4.aa	.	.
8r	.	8r	.	.	.	.	.	.
4r	.	4r	.	4.c 4.d	.	4.ddd	.	.
8r	.	8r	.	.	.	.	.	.
=57	=57	=57	=57	=57	=57	=57	=57	=57
32GGLLL	.	4.D	.	4.B- 4.d	.	4bb-	.	C none
32FF#X	.	.	.	.	.	.	.	.
32GG	.	.	.	.	.	.	.	.
32AA	.	.	.	.	.	.	.	.
32BB-	.	.	.	.	.	.	.	.
32AA	.	.	.	.	.	.	.	.
32BB-	.	.	.	.	.	.	.	.
32CJJ	.	.	.	.	.	.	.	.
8D'J	.	.	.	.	.	8r	.	.
4r	.	4.G	.	4.B- 4.d	.	4r	.	.
8r	.	.	.	.	.	8r	.	.
4r	.	4.A	.	4.B- 4.d	.	4r	.	.
8r	.	.	.	.	.	8r	.	.
=58	=58	=58	=58	=58	=58	=58	=58	=58
!LO:TX:b:Bi:t=Cresc.	!	!LO:TX:b:Bi:t=Cresc.	!	!LO:TX:b:Bi:t=Cresc.	!	!LO:TX:b:Bi:t=Cresc.	!	!
32EE-XLLL	.	4.B-	.	4.g	.	4.b-	.	C none
32DD	.	.	.	.	.	.	.	.
32EE-	.	.	.	.	.	.	.	.
32FF	.	.	.	.	.	.	.	.
32GG	.	.	.	.	.	.	.	.
32FF	.	.	.	.	.	.	.	.
32GG	.	.	.	.	.	.	.	.
32AA-XJJ	.	.	.	.	.	.	.	.
8BB-'J	.	.	.	.	.	.	.	.
4r	.	4.e-X	.	4.g 4.b-	.	4.ee-X	.	.
8r	.	.	.	.	.	.	.	.
4r	.	4.d	.	4.f 4.b-	.	4.ff	.	C none
8r	.	.	.	.	.	.	.	.
=59	=59	=59	=59	=59	=59	=59	=59	=59
4C#X	f	4c#X 4e	f	4g 4b-	f	4gg	f	C none
8r	.	8r	.	8r	.	8r	.	.
4r	.	4r	.	4r	.	4r	.	.
8r	.	8r	.	8r	.	8r	.	.
4r	.	4r	.	4r	.	4r	.	.
8r	.	8r	.	8r	.	8r	.	.
=60	=60	=60	=60	=60	=60	=60	=60	=60
4D	p	4d	p	4f 4a	p	4ff	p	C none
8r	.	8r	.	8r	.	8r	.	.
4r	.	4r	.	4r	.	4r	.	.
8r	.	8r	.	8r	.	8r	.	.
4r	.	4r	.	4r	.	4r	.	.
8r	.	8r	.	8r	.	8r	.	.
=61	=61	=61	=61	=61	=61	=61	=61	=61
4GG	pp	4B-	pp	4d	pp	4ee	pp	C none
8r	.	8r	.	8r	.	8r	.	.
4r	.	4r	.	4r	.	4r	.	.
8r	.	8r	.	8r	.	8r	.	.
4r	.	4r	.	4r	.	4r	.	.
8r	.	8r	.	8r	.	8r	.	.
=62	=62	=62	=62	=62	=62	=62	=62	=62
4AA	ppp	4G	ppp	4c#X	ppp	4a	ppp	C none
8r	.	8r	.	8r	.	8r	.	.
4r	.	4r	.	4r	.	4r	.	.
8r	.	8r	.	8r	.	8r	.	.
4r	.	4r	.	4r	.	4r	.	.
8r	.	8r	.	8r	.	8r	.	.
=63	=63	=63	=63	=63	=63	=63	=63	=63
8D'L	pp	8F'L	pp	16r	pp	8%9r	.	C none
.	.	.	.	16ALL	.	.	.	.
8D'	.	8F'	.	16B-	.	.	.	.
.	.	.	.	16A	.	.	.	.
8D'J	.	8F'J	.	16B-	.	.	.	.
.	.	.	.	16AJJ	.	.	.	.
8FL	.	8AL	.	16r	.	.	.	.
.	.	.	.	16ALL	.	.	.	.
8F	.	8A	.	16d	.	.	.	.
.	.	.	.	16A	.	.	.	.
8FJ	.	8AJ	.	16d	.	.	.	.
.	.	.	.	16AJJ	.	.	.	.
8EL	.	8GL	.	16r	.	.	.	.
.	.	.	.	16ALL	.	.	.	.
8E	.	8G	.	16c#X	.	.	.	.
.	.	.	.	16A	.	.	.	.
8EJ	.	8GJ	.	16c#	.	.	.	.
.	.	.	.	16AJJ	.	.	.	.
=64	=64	=64	=64	=64	=64	=64	=64	=64
8DL	.	8FL	.	16r	.	[2.a	.	C none
.	.	.	.	16ALL	.	.	.	.
!LO:TX:b:Bi:t=Cresc.	!	!LO:TX:b:Bi:t=Cresc.	!	!LO:TX:b:Bi:t=Cresc.	!	!	!	!
8D	.	8F	.	16B-	.	.	.	.
.	.	.	.	16A	.	.	.	.
8DJ	.	8FJ	.	16B-	.	.	.	.
.	.	.	.	16AJJ	.	.	.	.
8FL	.	8AL	.	16r	.	.	.	.
.	.	.	.	16ALL	.	.	.	.
8F	.	8A	.	16d	.	.	.	.
.	.	.	.	16A	.	.	.	.
8FJ	.	8AJ	.	16d	.	.	.	.
.	.	.	.	16AJJ	.	.	.	.
!	!	!	!	!	!	!LO:TX:b:Bi:t=Cresc.	!	!
8EL	.	8GL	.	16r	.	4.a_	pp	C none
.	.	.	.	16ALL	.	.	.	.
8E	.	8G	.	16c#X	.	.	.	.
.	.	.	.	16A	.	.	.	.
8EJ	.	8GJ	.	16c#	.	.	.	.
.	.	.	.	16AJJ	.	.	.	.
=65	=65	=65	=65	=65	=65	=65	=65	=65
8DL	.	8FL	.	16r	.	4.a]	.	C none
.	.	.	.	16ALL	.	.	.	.
8D	.	8F	.	16B-	.	.	.	.
.	.	.	.	16A	.	.	.	.
8DJ	.	8FJ	.	16B-	.	.	.	.
.	.	.	.	16AJJ	.	.	.	.
8FL	.	8AL	.	16r	.	4.dd	.	C none
.	.	.	.	16ALL	.	.	.	.
8F	.	8A	.	16d	.	.	.	.
.	.	.	.	16A	.	.	.	.
8FJ	.	8AJ	.	16d	.	.	.	.
.	.	.	.	16AJJ	.	.	.	.
8AL	.	8c#XL	.	16r	.	4.ee	.	C none
.	.	.	.	16ALL	.	.	.	.
8A	.	8c#	.	16e	.	.	.	.
.	.	.	.	16A	.	.	.	.
8AJ	.	8c#J	.	16e	.	.	.	.
.	.	.	.	16AJJ	.	.	.	.
=66	=66	=66	=66	=66	=66	=66	=66	=66
8DDL	p	16r	p	16r	p	[4.ff	p	C none
.	.	16FLL	.	16fLL	.	.	.	.
8D	.	16A	.	16a	.	.	.	.
.	.	16F	.	16f	.	.	.	.
8DJ	.	16A	.	16a	.	.	.	.
.	.	16FJJ	.	16fJJ	.	.	.	.
8DDL	.	16r	.	16r	.	4ff]	.	.
.	.	16FLL	.	16fLL	.	.	.	.
8D	.	16A	.	16a	.	.	.	.
.	.	16F	.	16f	.	.	.	.
8DJ	.	16A	.	16a	.	16eeLL	.	.
.	.	16FJJ	.	16fJJ	.	16ddJJ	.	.
8DDL	.	16r	.	16r	.	16ddLL	.	C none
.	.	16FLL	.	16fLL	.	32eeL	.	.
.	.	.	.	.	.	32ddJ	.	.
8D	.	16B-	.	16b-	.	16cc#X	.	.
.	.	16F	.	16f	.	16dd	.	.
8DJ	.	16B-	.	16b-	.	16ff	.	.
.	.	16FJJ	.	16fJJ	.	16eeJJ	.	.
=67	=67	=67	=67	=67	=67	=67	=67	=67
8EEL	f	32GLLL	f	32gLLL	f	4dd	f	C none
.	.	32F#X	.	32f#X	.	.	.	.
.	.	32G	.	32g	.	.	.	.
.	.	32F#	.	32f#	.	.	.	.
8E	.	32G	.	32g	.	.	.	.
.	.	32F#	.	32f#	.	.	.	.
.	.	32G	.	32g	.	.	.	.
.	.	32AJJ	.	32aJJ	.	.	.	.
8EJ	.	8B-'J	.	8b-'J	.	[4.cc#X	.	C none
8EEL	.	16GLL	.	32gLLL	.	.	.	.
.	.	.	.	32f#	.	.	.	.
.	.	32F#L	.	32g	.	.	.	.
.	.	32G	.	32f#	.	.	.	.
8E	.	32F#	.	32g	.	.	.	.
.	.	32G	.	32f#	.	.	.	.
.	.	32F#	.	32g	.	.	.	.
.	.	32G	.	32aJJ	.	.	.	.
8EJ	.	32AJJ	.	8b-'J	.	8cc#L]	.	.
.	.	8B-'J	.	.	.	.	.	.
8EEL	.	.	.	32gLLL	.	16cc#L	.	.
.	.	32GLLL	.	32f#	.	.	.	.
.	.	32F#	.	32g	.	16dd	.	.
.	.	32G	.	32a	.	.	.	.
8E	.	32A	.	32b-	.	16ee	.	.
.	.	32B-	.	32a	.	.	.	.
.	.	32A	.	32b-	.	16ffJJ	.	.
.	.	32B-	.	32a	.	.	.	.
8EJ	.	32A	.	32g	.	8ryy	.	.
.	.	32G	.	32fn	.	.	.	.
.	.	32Fn	.	32e	.	.	.	.
.	.	32DJJJ	.	32dJJJ	.	.	.	.
=68	=68	=68	=68	=68	=68	=68	=68	=68
8EEL	p	16C#X'LL	p	16c#X'	p	[4.gg	p	.
.	.	16E	.	16c#LL	.	.	.	.
8E	.	16G	.	16b-	.	.	.	.
.	.	16E	.	16c#	.	.	.	.
8EJ	.	16G	.	16b-	.	.	.	.
.	.	16EJJ	.	16c#JJ	.	.	.	.
8EEL	.	16r	.	16r	.	8ggL]	.	.
.	.	16ELL	.	16c#LL	.	.	.	.
.	.	.	.	.	.	32qqaa/	.	.
8E	.	16G	.	16b-	.	16ggL	.	.
.	.	16E	.	16c#	.	16ff#X	.	.
8EJ	.	16G	.	16b-	.	16gg	.	.
.	.	16EJJ	.	16c#JJ	.	16aaJJ	.	.
8EEL	.	16r	.	16r	.	4bb-	.	.
.	.	16ELL	.	16c#LL	.	.	.	.
8E	.	16G	.	16b-	.	.	.	.
.	.	16E	.	16c#	.	.	.	.
8EJ	.	16G	.	16b-	.	8cc#X	.	.
.	.	16EJJ	.	16c#JJ	.	.	.	.
=69	=69	=69	=69	=69	=69	=69	=69	=69
8FFL	f	32ALLL	f	32aLLL	f	4.ee	f	C none
.	.	32G	.	32g#X	.	.	.	.
.	.	32A	.	32a	.	.	.	.
.	.	32G	.	32g#	.	.	.	.
8F	.	32A	.	32a	.	.	.	.
.	.	32G	.	32gn	.	.	.	.
.	.	32F	.	32f	.	.	.	.
.	.	32EJJ	.	32eJJ	.	.	.	.
8FJ	.	8D'J	.	8d'J	.	.	.	.
8FFL	.	32ALLL	.	32aLLL	.	[4dd	.	C none
.	.	32G#X	.	32g#X	.	.	.	.
.	.	32A	.	32a	.	.	.	.
.	.	32G#	.	32g#	.	.	.	.
8F	.	32A	.	32a	.	.	.	.
.	.	32Gn	.	32gn	.	.	.	.
.	.	32F	.	32f	.	.	.	.
.	.	32EJJ	.	32eJJ	.	.	.	.
8FJ	.	8D'J	.	8d'J	.	8ddL]	.	.
8FFL	.	32ALLL	.	32aLLL	.	8ee	.	.
.	.	32G#X	.	32g#X	.	.	.	.
.	.	32A	.	32a	.	.	.	.
.	.	32G#	.	32g#	.	.	.	.
8F	.	32A	.	32a	.	8ffJ	.	.
.	.	32Gn	.	32gn	.	.	.	.
.	.	32F-X	.	32f	.	.	.	.
.	.	32EJJ	.	32eJJ	.	.	.	.
8FJ	.	8D'J	.	8d'J	.	8ryy	.	.
=70	=70	=70	=70	=70	=70	=70	=70	=70
8GGL	.	16r	.	16r	.	4.ff	.	C none
.	.	16B-LL	p	16dLL	p	.	.	.
8G	p	16d	.	16e	.	.	.	.
.	.	16B-	.	16d	.	.	.	.
8GJ	.	16d	.	16e	.	.	.	.
.	.	16B-JJ	.	16dJJ	.	.	.	.
8GGL	.	16r	.	16r	.	[4.ee	p	C none
.	.	16B-LL	.	16dLL	.	.	.	.
8G	.	16d	.	16e	.	.	.	.
.	.	16B-	.	16d	.	.	.	.
8GJ	.	16d	.	16e	.	.	.	.
.	.	16B-JJ	.	16dJJ	.	.	.	.
8GG#XL	.	16r	.	16r	.	8eeL]	.	C none
.	.	16B-LL	.	16dLL	.	.	.	.
8G#X	.	16d	.	16f	.	8ff	.	.
.	.	16B-	.	16d	.	.	.	.
8G#J	.	16d	.	16f	.	8ddJ	.	.
.	.	16B-JJ	.	16dJJ	.	.	.	.
=71	=71	=71	=71	=71	=71	=71	=71	=71
4AA	.	8EL	.	4c#X	.	4cc#X	.	C none
.	.	8A'	.	.	.	.	.	.
8r	.	8A'J	.	8r	.	8r	.	.
8r	.	[4.A	.	8r	.	8r	.	.
8C#XL	.	.	.	8aL	.	8aaL	.	.
8EJ	.	.	.	8gJ	.	8ggJ	.	.
8DL	.	8AL]	.	8fL	.	8ffL	.	C none
8GG	.	8B-	.	8e	.	8ee	.	C none
8GG#XJ	.	8BnJ	.	8dJ	.	8ddJ	.	C none
=72	=72	=72	=72	=72	=72	=72	=72	=72
8AAL	.	[4.E	.	4c#X	.	4cc#X	.	C none
8BB-	.	.	.	.	.	.	.	.
8GG#XJ	.	.	.	8r	.	8r	.	.
8AAL	.	8EL]	.	4a	.	4aa	.	.
8C#X	.	8A'	.	.	.	.	.	.
8EJ	.	8A'J	.	8g	.	8gg	.	.
8DL	.	8AL	.	8fL	.	8ffL	.	C none
8GGn	.	8B-	.	8e	.	8ee	.	C none
8GG#XJ	.	8BnJ	.	8dJ	.	8ddJ	.	C none
=73	=73	=73	=73	=73	=73	=73	=73	=73
4AA	.	4E	.	4c#X	.	4cc#X	.	C none
8r	.	8r	.	8r	.	8r	.	.
4r	.	4r	.	4r	.	4r	.	.
8r	.	8r	.	8r	.	8r	.	.
4.A	pp	4.d	pp	4.f	pp	4.b-	pp	C none
=74	=74	=74	=74	=74	=74	=74	=74	=74
4A	.	4c#X	.	4e	.	4a	.	C none
8r	.	8r	.	8r	.	8r	.	.
4r	.	4r	.	4r	.	4r	.	.
8r	.	8r	.	8r	.	8r	.	.
!	!	!	!LO:DY:a	!	!LO:DY:a	!	!	!
4.BB-	sf	4.B-	sf sf	4.B-	sf	4.B-	.	C none
=75	=75	=75	=75	=75	=75	=75	=75	=75
!	!	!	!LO:DY:a	!	!LO:DY:a	!	!	!
8AAL	p	8AL	p p	8AL	p	8AL	.	C none
!LO:TX:b:Bi:t=Cresc.	!	!LO:TX:b:Bi:t=Cresc.	!	!LO:TX:b:Bi:t=Cresc.	!	!LO:TX:b:Bi:t=Cresc.	!	!
8C#X	.	8c#X	.	8c#X	.	8c#X	.	.
8EJ	.	8eJ	.	8eJ	.	8eJ	.	.
8AL	.	[4.a	.	8aL	.	8aL	.	.
8G	.	.	.	8c#	.	8A	.	.
8F#XJ	.	.	.	8dJ	.	8BnJ	.	.
8EL	.	8aL]	.	8eL	.	8c#L	.	.
8D	.	8a'	.	8f#X	.	8d	.	.
8C#J	.	8a'J	.	8gJ	.	8eJ	.	C none
=76	=76	=76	=76	=76	=76	=76	=76	=76
4D	p	4.a	p	8f#XL	p	4d	p	C none
.	.	.	.	8A	.	.	.	.
8r	.	.	.	8A'J	.	8r	.	.
4r	.	4.g	.	8eL	.	4r	.	C none
.	.	.	.	8A	.	.	.	.
8r	.	.	.	8A'J	.	8r	.	.
4r	.	8f#X	.	8dL	.	4r	.	C none
.	.	32qqg/	.	.	.	.	.	.
.	.	16f#'LL	.	8A	.	.	.	.
.	.	16e	.	.	.	.	.	.
8r	.	16f#	.	8A'J	.	8r	.	.
.	.	16gJJ	.	.	.	.	.	.
=77	=77	=77	=77	=77	=77	=77	=77	=77
4.G	.	4e	.	8c#XL	.	4.bbn	.	C none
.	.	.	.	8A	.	.	.	.
.	.	8r	.	8A'J	.	.	.	.
4.F#X	.	4r	.	8dL	.	4.aa	.	C none
.	.	.	.	8A	.	.	.	.
.	.	8r	.	8A'J	.	.	.	.
4.C#X	.	4r	.	8eL	.	8ggL	.	C none
.	.	.	.	.	.	32qqaa/	.	.
.	.	.	.	8A	.	16ggL	.	.
.	.	.	.	.	.	16ff#X	.	.
.	.	8r	.	8A'J	.	16gg	.	.
.	.	.	.	.	.	16aaJJ	.	.
=78	=78	=78	=78	=78	=78	=78	=78	=78
4D	.	8aL	.	8f#XL	.	4ff#X	.	C none
.	.	16ddL	.	8A	.	.	.	.
.	.	16cc#X	.	.	.	.	.	.
8r	.	16bn	.	8A'J	.	8r	.	.
.	.	16aJJ	.	.	.	.	.	.
4r	.	16aLL	.	8c#XL	.	4r	.	C none
.	.	16g	.	.	.	.	.	.
.	.	16ee	.	8A	.	.	.	.
.	.	16dd#X	.	.	.	.	.	.
8r	.	16a	.	8A'J	.	8r	.	.
.	.	16gJJ	.	.	.	.	.	.
4r	.	16gLL	.	8dL	.	4r	.	C none
.	.	16f#X	.	.	.	.	.	.
.	.	16ddn	.	8A	.	.	.	.
.	.	16a	.	.	.	.	.	.
8r	.	16g	.	8A'J	.	8r	.	.
.	.	16f#JJ	.	.	.	.	.	.
=79	=79	=79	=79	=79	=79	=79	=79	=79
4.G	.	4.e	.	8c#XL	.	8bbnL	.	C none
.	.	.	.	8A	.	16eeeL	.	C none
.	.	.	.	.	.	16ddd	.	.
.	.	.	.	8AJ	.	16ccc#X	.	.
.	.	.	.	.	.	16bbJJ	.	.
4.F#X	.	4.f#X	.	8dL	.	16bbLL	.	C none
.	.	.	.	.	.	16aa	.	.
.	.	.	.	8A	.	16ddd	.	.
.	.	.	.	.	.	16ccc#	.	.
.	.	.	.	8A'J	.	16bb	.	.
.	.	.	.	.	.	16aaJJ	.	.
4.C#X	.	4.g	.	8eL	.	16aaLL	.	C none
.	.	.	.	.	.	16gg	.	.
.	.	.	.	8A	.	16eee	.	.
.	.	.	.	.	.	16ccc#	.	.
.	.	.	.	8A'J	.	16aa	.	.
.	.	.	.	.	.	16ggJJ	.	.
=80	=80	=80	=80	=80	=80	=80	=80	=80
4D	.	4f#X	.	4A	.	16ff#XLL	.	C none
.	.	.	.	.	.	16ee#X	.	.
.	.	.	.	.	.	16ff#	.	.
.	.	.	.	.	.	16een	.	.
8r	.	8r	.	8r	.	16dd	.	.
.	.	.	.	.	.	16cc#XJJ	.	.
4r	.	4r	.	4r	.	16b-LL	.	C none
.	.	.	.	.	.	16a#X	.	.
.	.	.	.	.	.	16b-	.	.
.	.	.	.	.	.	16an	.	.
8r	.	8r	.	8r	.	16g	.	.
.	.	.	.	.	.	16f#XJJ	.	.
4r	.	4r	.	4r	.	16eLL	.	C none
.	.	.	.	.	.	16d#X	.	.
.	.	.	.	.	.	16e	.	.
.	.	.	.	.	.	16dn	.	.
8r	.	8r	.	8r	.	16c#X	.	.
.	.	.	.	.	.	16BnJJ	.	.
=81	=81	=81	=81	=81	=81	=81	=81	=81
16FLL	.	[4.F#X	.	4r	.	4A#X	.	C none
16E#X	.	.	.	.	.	.	.	.
16F	.	.	.	.	.	.	.	.
16En	.	.	.	.	.	.	.	.
16D	.	.	.	8r	.	16BnLL	.	.
16C#XJJ	.	.	.	.	.	16c#XJJ	.	.
16BBnLL	.	4F#]	.	4Bn	.	4d	.	C none
16AA#X	.	.	.	.	.	.	.	.
16BB	.	.	.	.	.	.	.	.
16AAn	.	.	.	.	.	.	.	.
16GG	.	[8Bn	.	16c#XLL	.	16eLL	.	.
16FF#XJJ	.	.	.	16dJJ	.	16f#XJJ	.	.
16EELL	.	16BLL]	.	8.eL	.	8g'L	.	C none
16BB	.	16A	.	.	.	.	.	.
16E	.	16G	.	.	.	8g'	.	.
16D	.	16F#	.	16BL	.	.	.	.
16C#	.	16E	.	16c#	.	8g'J	.	.
16BBJJ	.	16DJJ	.	16dJJ	.	.	.	.
=82	=82	=82	=82	=82	=82	=82	=82	=82
!LO:TX:b:Bi:t=Cresc.	!	!LO:TX:b:Bi:t=Cresc.	!	!LO:TX:b:Bi:t=Cresc.	!	!LO:TX:b:Bi:t=Cresc.	!	!
2.AA	.	16C#XLL	.	16eLL	.	2.g	.	C none
.	.	16D	.	16d	.	.	.	.
.	.	16E	.	16c#X	.	.	.	.
.	.	16D	.	16d	.	.	.	.
.	.	16C#	.	16e	.	.	.	.
.	.	16DJJ	.	16dJJ	.	.	.	.
.	.	16ELL	.	16c#LL	.	.	.	.
.	.	16D	.	16d	.	.	.	.
.	.	16C#	.	16e	.	.	.	.
.	.	16D	.	16d	.	.	.	.
.	.	16E	.	16c#	.	.	.	.
.	.	16C#JJ	.	16eJJ	.	.	.	.
4.BB-	.	16DLL	.	4.d	.	4.f	.	C none
.	.	16C#	.	.	.	.	.	.
.	.	16D	.	.	.	.	.	.
.	.	16E	.	.	.	.	.	.
.	.	16F	.	.	.	.	.	.
.	.	16DJJ	.	.	.	.	.	.
=83	=83	=83	=83	=83	=83	=83	=83	=83
4.GG	.	4.G	.	16B-LL	.	4.e-X	.	C none
.	.	.	.	16A	.	.	.	.
.	.	.	.	16B-	.	.	.	.
.	.	.	.	16A	.	.	.	.
.	.	.	.	16B-	.	.	.	.
.	.	.	.	16AJJ	.	.	.	.
!	!	!	!LO:DY:a	!	!	!	!	!
4.BB-	sf	16DLL	sf sf	4.G#X	.	[4.d	sf	C none
.	.	16C#X	.	.	.	.	.	.
.	.	16D	.	.	.	.	.	.
.	.	16C#	.	.	.	.	.	.
.	.	16D	.	.	.	.	.	.
.	.	16FJJ	.	.	.	.	.	.
4.AA	.	4A	.	4Gn	.	8dL]	.	C none
.	.	.	.	.	.	8en	.	C none
.	.	8a	.	8g	.	8c#XJ	.	.
=84	=84	=84	=84	=84	=84	=84	=84	=84
4D	p	16aLL	p	4f#X	p	4d	p	C none
.	.	16g#X	.	.	.	.	.	.
.	.	16a	.	.	.	.	.	.
.	.	16gn	.	.	.	.	.	.
8r	.	16f#X	.	8r	.	8r	.	.
.	.	16eJJ	.	.	.	.	.	.
4r	.	16dLL	.	16ffLL	.	4r	.	.
.	.	16c#X	.	16ee#X	.	.	.	.
.	.	16d	.	16ff	.	.	.	.
.	.	16cn	.	16een	.	.	.	.
8r	.	16Bn	.	16dd	.	8r	.	.
.	.	16AJJ	.	16cc#XJJ	.	.	.	.
16GLL	.	4G	.	16b-LL	.	16bbnLL	.	C none
16F#X	.	.	.	16a#X	.	16aa#X	.	.
16G	.	.	.	16b-	.	16bb	.	.
16F#	.	.	.	16an	.	16aan	.	.
16E	.	16ALL	.	16g	.	16gg	.	.
16DJJ	.	16BJJ	.	16f#JJ	.	16ff#XJJ	.	.
=85	=85	=85	=85	=85	=85	=85	=85	=85
16CLL	.	[2.c	.	4.e	.	4.ee	.	C none
16BB-	.	.	.	.	.	.	.	.
16C	.	.	.	.	.	.	.	.
16BB-	.	.	.	.	.	.	.	.
16AA	.	.	.	.	.	.	.	.
16GGJJ	.	.	.	.	.	.	.	.
16FF#XLL	.	.	.	[4.a	.	4.ee-X	.	C none
16GG	.	.	.	.	.	.	.	.
16FF#	.	.	.	.	.	.	.	.
16GG	.	.	.	.	.	.	.	.
16AA	.	.	.	.	.	.	.	.
16GGJJ	.	.	.	.	.	.	.	.
16FF#LL	.	8cL]	.	8.aL]	.	[4.dd	.	.
16EE	.	.	.	.	.	.	.	.
16FF#	.	8c	.	.	.	.	.	.
16DD	.	.	.	16f#XL	.	.	.	.
16EE	.	8cJ	.	16g	.	.	.	.
16FF#JJ	.	.	.	16aJJ	.	.	.	.
=86	=86	=86	=86	=86	=86	=86	=86	=86
16GGLL	.	8.B-L	.	4.b-	.	8ddL]	.	C none
16B-	.	.	.	.	.	.	.	.
!LO:TX:b:Bi:t=Cresc.	!	!	!	!	!	!LO:TX:b:Bi:t=Cresc.	!	!
16G	.	.	.	.	.	8gg	.	.
!	!	!LO:TX:b:Bi:t=Cresc.	!	!	!	!	!	!
16F	.	16dL	.	.	.	.	.	.
16E	.	16e	.	.	.	8gg'J	.	.
16DJJ	.	16fJJ	.	.	.	.	.	.
!	!	!	!	!LO:TX:b:Bi:t=Cresc.	!	!	!	!
16C#XLL	.	4.e	.	[4.a	.	4.gg	.	C none
16BBn	.	.	.	.	.	.	.	.
16C#	.	.	.	.	.	.	.	.
16AA	.	.	.	.	.	.	.	.
16BB	.	.	.	.	.	.	.	.
16C#JJ	.	.	.	.	.	.	.	.
16DLL	.	4.d	.	8aL]	.	4.ffn	.	C none
16C#	.	.	.	.	.	.	.	.
16D	.	.	.	8a'	.	.	.	.
16AA	.	.	.	.	.	.	.	.
16FF	.	.	.	8a'J	.	.	.	.
16DDJJ	.	.	.	.	.	.	.	.
=87	=87	=87	=87	=87	=87	=87	=87	=87
4.GG	.	4.G	.	16b-LL	.	4.ee-X	.	C none
.	.	.	.	16a	.	.	.	.
.	.	.	.	16b-	.	.	.	.
.	.	.	.	16a	.	.	.	.
.	.	.	.	16b-	.	.	.	.
.	.	.	.	16aJJ	.	.	.	.
4.BB-	sf	16DLL	sf	4.g#X	sf	[4dd'	sf	C none
.	.	16C#X	.	.	.	.	.	.
.	.	16D	.	.	.	.	.	.
.	.	16C#	.	.	.	.	.	.
.	.	16D	.	.	.	8ddL]	.	.
.	.	16FJJ	.	.	.	.	.	.
4.AA	.	4A	.	4.gn	.	8een	.	C none
.	.	.	.	.	.	8cc#XJ	.	.
.	.	8A	.	.	.	8ryy	.	.
=88	=88	=88	=88	=88	=88	=88	=88	=88
8DDL	p	4.a	p	8f#XL	p	8ddL	p	C none
8D	.	.	.	8A	.	8f#X	.	C none
8DJ	.	.	.	8AJ	.	8f#J	.	.
4D	.	16g#XLL	.	4A	.	4f#	.	.
.	.	16a	.	.	.	.	.	.
.	.	16bn	.	.	.	.	.	.
.	.	16a	.	.	.	.	.	.
8r	.	16e#X	.	8r	.	8r	.	.
.	.	16f#XJJ	.	.	.	.	.	.
4r	.	16gnLL	.	4r	.	4r	.	.
.	.	16f#	.	.	.	.	.	.
.	.	16c#X	.	.	.	.	.	.
.	.	16d	.	.	.	.	.	.
8r	.	16en	.	8r	.	8r	.	.
.	.	16dJJ	.	.	.	.	.	.
=89	=89	=89	=89	=89	=89	=89	=89	=89
8DDL	.	8c#XL	.	4.ee	.	8AL 8g	.	C none
8D	.	8c#	.	.	.	8A 8g	.	.
8DJ	.	8c#J	.	.	.	8AJ 8g	.	.
4D	.	4c#	.	16dd#XLL	.	4A 4g	.	.
.	.	.	.	16ee	.	.	.	.
.	.	.	.	16ff#X	.	.	.	.
.	.	.	.	16ee	.	.	.	.
8r	.	8r	.	16b#X	.	8r	.	.
.	.	.	.	16cc#XJJ	.	.	.	.
4r	.	4r	.	16ddnLL	.	4r	.	.
.	.	.	.	16cc#	.	.	.	.
.	.	.	.	16g#X	.	.	.	.
.	.	.	.	16a	.	.	.	.
8r	.	8r	.	16bn	.	8r	.	.
.	.	.	.	16aJJ	.	.	.	.
=90	=90	=90	=90	=90	=90	=90	=90	=90
!	!	!	!	!	!	!LO:TX:b:Bi:t=Decresc.	!	!
8DL	.	8f#XL	.	8a'L	.	4.aa	.	C none
8d	.	8f#	.	8a'	.	.	.	.
8dJ	.	8f#J	.	8a'J	.	.	.	.
4d	.	4f#	.	4a	.	16gg#XLL	.	.
.	.	.	.	.	.	16aa	.	.
.	.	.	.	.	.	16bbn	.	.
.	.	.	.	.	.	16aa	.	.
8r	.	8r	.	8r	.	16ee#X	.	.
.	.	.	.	.	.	16ff#XJJ	.	.
4r	.	4r	.	4r	.	16ggnLL	.	.
.	.	.	.	.	.	16ff#	.	.
.	.	.	.	.	.	16cc#X	.	.
.	.	.	.	.	.	16dd	.	.
8r	.	8r	.	8r	.	16een	.	.
.	.	.	.	.	.	16ddJJ	.	.
=91	=91	=91	=91	=91	=91	=91	=91	=91
8%9r	.	8%9r	.	8%9r	.	16a#XLL	.	C none
.	.	.	.	.	.	16bn	.	.
.	.	.	.	.	.	16cc#X	.	.
.	.	.	.	.	.	16b	.	.
.	.	.	.	.	.	16f#X	.	.
.	.	.	.	.	.	16gJJ	.	.
.	.	.	.	.	.	16anLL	.	.
.	.	.	.	.	.	16g	.	.
.	.	.	.	.	.	16d#X	.	.
.	.	.	.	.	.	16e	.	.
.	.	.	.	.	.	16f#	.	.
.	.	.	.	.	.	16eJJ	.	.
.	.	.	.	.	.	16d#LL	.	.
.	.	.	.	.	.	16e	.	.
.	.	.	.	.	.	16f#	.	.
.	.	.	.	.	.	16e	.	.
.	.	.	.	.	.	16d#	.	.
.	.	.	.	.	.	16eJJ	.	.
=92	=92	=92	=92	=92	=92	=92	=92	=92
[2.AA	.	4e	.	4r	.	4g	.	C none
*	*	*	*	*	*	*^	*	*
.	.	.	.	.	.	.	[4.A	.	.
!	!	!	!	!	!LO:DY:a	!	!	!	!
.	.	8d	pp	8r	pp	8f#X	.	.	C none
.	.	4c#X	.	4e	.	[4.e	.	.	C none
.	.	.	.	.	.	.	4.A_	.	.
.	.	8Bn	.	8d	pp	.	.	.	.
4AA]	pp	4A	.	4c#X	.	8e]	.	.	.
.	.	.	.	.	.	.	4.A]	.	.
.	.	.	.	.	.	12f#L	.	.	.
.	.	.	.	.	.	12gJ	.	.	.
8GG	.	8E	.	8c#'	.	.	.	.	.
.	.	.	.	.	.	16.ryy	.	.	C none
=93	=93	=93	=93	=93	=93	=93	=93	=93	=93
!LO:TX:b:Bi:t=Cresc.	!	!LO:TX:b:Bi:t=Cresc.	!	!LO:TX:b:Bi:t=Cresc.	!	!	!	!	!
4FF#X	.	4D	.	4A	.	.	.	.	.
*	*	*	*	*	*	*v	*v	*	*
!	!	!	!	!	!	!LO:TX:b:Bi:t=Cresc.	!	!
.	.	.	.	.	.	4a	.	C none
8EE	.	8G	.	16BnLL	.	.	.	.
.	.	.	.	.	.	16bnLL	.	.
.	.	.	.	16c#XJJ	.	.	.	.
.	.	.	.	.	.	16cc#XJJ	.	C none
8DDL	.	[4.F#X	.	[4.d	.	.	.	.
.	.	.	.	.	.	[4.dd	.	C none
8D	.	.	.	.	.	.	.	.
8C#XJ	.	.	.	.	.	.	.	.
4BBn	.	8F#L]	.	8dL]	.	.	.	.
.	.	.	.	.	.	8ddL]	.	C none
.	.	8Bn	.	8d	.	.	.	.
.	.	.	.	.	.	8f#X	.	.
8AA#X	.	8c#XJ	.	8eJ	.	.	.	.
.	.	.	.	.	.	8f#'J	.	C none
=94	=94	=94	=94	=94	=94	=94	=94	=94
4BBn	.	4Bn~	.	4d	.	.	.	.
.	.	.	.	.	.	4f#X	.	C none
8GG	.	8B'	.	8e	.	.	.	.
.	.	.	.	.	.	16qqg/LL	.	C none
.	.	.	.	.	.	16qqf#/	.	.
.	.	.	.	.	.	16qqe/	.	.
.	.	.	.	.	.	16qqf#/JJ	.	.
.	.	.	.	.	.	16aLL	.	.
.	.	.	.	.	.	16gJJ	.	.
[4.AAn	.	4.A	.	4.d	.	.	.	.
.	.	.	.	.	.	[4.f#	.	C none
4.AA]	.	4.G	.	4.c#X	.	.	.	.
.	.	.	.	.	.	8.f#L]	.	C none
.	.	.	.	.	.	16eL	.	C none
.	.	.	.	.	.	16.bn	.	.
.	.	.	.	.	.	32aJJk	.	.
=95	=95	=95	=95	=95	=95	=95	=95	=95
4D	pp	16DLL	pp	16dLL	pp	.	.	.
.	.	.	.	.	.	4d	pp	C none
.	.	16D	.	16AJJ 16d	.	.	.	.
.	.	16D	.	16ALL 16d	.	.	.	.
.	.	16D	.	16AJJ 16d	.	.	.	.
8r	.	16D	.	16ALL 16d	.	.	.	.
.	.	.	.	.	.	8r	.	C none
.	.	16DJJ	.	16AJJ 16d	.	.	.	.
4r	.	16FLL	.	4.A 4.d	.	.	.	.
.	.	.	.	.	.	4r	.	.
.	.	16F	.	.	.	.	.	.
.	.	16F	.	.	.	.	.	.
.	.	16F	.	.	.	.	.	.
8r	.	16F	.	.	.	.	.	.
.	.	.	.	.	.	8r	.	.
.	.	16FJJ	.	.	.	.	.	.
4r	.	4.E 4.G	.	4.c#X	.	.	.	.
.	.	.	.	.	.	4r	.	C none
8r	.	.	.	.	.	.	.	.
.	.	.	.	.	.	8r	.	.
*clefC4	*	*	*	*	*	*	*	*
=96	=96	=96	=96	=96	=96	=96	=96	=96
[2.A	.	4.D	.	4.f	.	.	.	.
.	.	.	.	.	.	[2.a	.	C none
!	!	!	!LO:DY:a	!	!	!	!	!
.	.	4.F	p p	4.A 4.d	.	.	.	.
4.A]	p	4.E 4.G	.	4.c#X	.	.	.	.
.	.	.	.	.	.	4a_	.	C none
.	.	.	.	.	.	16aLL]	.	.
.	.	.	.	.	.	112aLL	.	.
.	.	.	.	.	.	112b-	.	.
.	.	.	.	.	.	112cc	.	.
.	.	.	.	.	.	112dd	.	.
.	.	.	.	.	.	112ee	.	.
.	.	.	.	.	.	112ff	.	.
.	.	.	.	.	.	112ggJJJJ	.	.
=97	=97	=97	=97	=97	=97	=97	=97	=97
4.A	.	4.D	.	4.f	.	.	.	.
.	.	.	.	.	.	[2.aa	.	C none
4.d	.	4.F	.	4.A 4.d	.	.	.	.
4.e	.	4.A	.	4.c#X	.	.	.	.
.	.	.	.	.	.	4aa_	.	C none
.	.	.	.	.	.	16aaLL]	.	.
.	.	.	.	.	.	128aaLLL	.	.
.	.	.	.	.	.	128bbn	.	.
.	.	.	.	.	.	128ccc#X	.	.
.	.	.	.	.	.	128ddd	.	.
.	.	.	.	.	.	128eee	.	.
.	.	.	.	.	.	128fff	.	.
.	.	.	.	.	.	128gggJJJJJ	.	.
.	.	.	.	.	.	128r	.	.
=98	=98	=98	=98	=98	=98	=98	=98	=98
4.f	.	4.D	.	4.A 4.f	.	.	.	.
!	!	!	!	!	!	!LO:TX:a:t=V(64)	!	!
.	.	.	.	.	.	4aaa	ff	.
.	.	.	.	.	.	8r	.	.
!	!LO:DY:a	!	!LO:DY:a	!	!	!	!	!
!	!LO:DY:a	!	!LO:DY:a	!	!	!	!	!
4f	ff p p ff	4.D'	ff p	4.A 4.f	.	.	.	.
.	.	.	.	.	.	4d	.	.
16eLL	.	.	.	.	.	.	.	.
.	.	.	.	.	.	8r	.	.
16dJJ	.	.	.	.	.	.	.	.
16dLL	.	4.D	.	4.B- 4.f	.	.	.	.
!	!	!	!	!	!	!LO:TX:a:t=VI6	!	!
.	.	.	.	.	.	4r	.	.
32eL	.	.	.	.	.	.	.	.
32dJ	.	.	.	.	.	.	.	.
16c#X	.	.	.	.	.	.	.	.
16d	.	.	.	.	.	.	.	.
16f	.	.	.	.	.	.	.	.
.	.	.	.	.	.	8r	.	.
16eJJ	.	.	.	.	.	.	.	.
=99	=99	=99	=99	=99	=99	=99	=99	=99
!	!	!	!LO:DY:a	!	!	!	!	!
4.d	f	4.E 4.G	f f	16B-	.	.	.	.
.	.	.	.	.	.	32ggLLL	f	C none
.	.	.	.	.	.	32ff#X	.	.
.	.	.	.	32gLLL	.	.	.	.
.	.	.	.	.	.	32gg	.	.
.	.	.	.	32f#X	.	.	.	.
.	.	.	.	.	.	32ff#	.	.
.	.	.	.	32g	.	.	.	.
.	.	.	.	.	.	32gg	.	.
.	.	.	.	32f#	.	.	.	.
.	.	.	.	.	.	32ff#	.	.
.	.	.	.	32g	.	.	.	.
.	.	.	.	.	.	32gg	.	.
.	.	.	.	32aJJ	.	.	.	.
.	.	.	.	.	.	32aaJJ	.	.
.	.	.	.	8bn'J	.	.	.	.
.	.	.	.	.	.	8bb-'J	.	.
[4.c#X	.	4.E 4.G	.	32gLLL	.	.	.	.
.	.	.	.	.	.	32ggLLL	.	C none
.	.	.	.	32f#	.	.	.	.
.	.	.	.	.	.	32ff#	.	.
.	.	.	.	32g	.	.	.	.
.	.	.	.	.	.	32gg	.	.
.	.	.	.	32f#	.	.	.	.
.	.	.	.	.	.	32ff#	.	.
.	.	.	.	32g	.	.	.	.
.	.	.	.	.	.	32gg	.	.
.	.	.	.	32f#	.	.	.	.
.	.	.	.	.	.	32ff#	.	.
.	.	.	.	32g	.	.	.	.
.	.	.	.	.	.	32gg	.	.
.	.	.	.	32aJJ	.	.	.	.
.	.	.	.	.	.	32aaJJ	.	.
.	.	.	.	8b'J	.	.	.	.
.	.	.	.	.	.	8bb-'J	.	.
8c#L]	.	4.E 4.G	.	32gLLL	.	.	.	.
.	.	.	.	.	.	32ggLLL	.	.
.	.	.	.	32f#	.	.	.	.
.	.	.	.	.	.	32ff#	.	.
.	.	.	.	32g	.	.	.	.
.	.	.	.	.	.	32gg	.	.
.	.	.	.	32a	.	.	.	.
.	.	.	.	.	.	32aa	.	.
16c#L	.	.	.	32b	.	.	.	.
.	.	.	.	.	.	32bb-	.	.
.	.	.	.	32a	.	.	.	.
.	.	.	.	.	.	32aa	.	.
16d	.	.	.	32b	.	.	.	.
.	.	.	.	.	.	32bb-	.	.
.	.	.	.	32a	.	.	.	.
.	.	.	.	.	.	32aa	.	.
16e	.	.	.	32g	.	.	.	.
.	.	.	.	.	.	32gg	.	.
.	.	.	.	32f#	.	.	.	.
.	.	.	.	.	.	32ffn	.	.
16fJJ	.	.	.	32e-X	.	.	.	.
.	.	.	.	.	.	32ee	.	.
.	.	.	.	32d'JJJ	.	.	.	.
.	.	.	.	.	.	32ddJJJ	.	.
=100	=100	=100	=100	=100	=100	=100	=100	=100
4.g	p	4.E 4.G	p	8c#X'L	p	.	.	.
.	.	.	.	.	.	8cc#X	p	C none
.	.	.	.	8gg'	.	.	.	.
.	.	.	.	.	.	8r	.	.
.	.	.	.	8ee'J	.	.	.	.
.	.	.	.	.	.	4r	.	.
!LO:TX:b:Bi:t=Cresc.	!	!LO:TX:b:Bi:t=Cresc.	!	!LO:TX:b:Bi:t=Cresc.	!	!	!	!
8g	.	4.E 4.G	.	8cc#X'L	.	.	.	.
32qqa/	.	.	.	.	.	.	.	.
16gLL	.	.	.	8g'	.	.	.	.
.	.	.	.	.	.	8r	.	.
16f#X	.	.	.	.	.	.	.	.
16g	.	.	.	8e'J	.	.	.	.
.	.	.	.	.	.	4r	.	.
16aJJ	.	.	.	.	.	.	.	.
4b-	.	4.E 4.G	.	8c#'L	.	.	.	.
.	.	.	.	8G'	.	.	.	.
.	.	.	.	.	.	8r	.	.
8c#X	.	.	.	8bn'J	.	.	.	.
.	.	.	.	.	.	8r	.	.
=101	=101	=101	=101	=101	=101	=101	=101	=101
4.e	f	4.F 4.A	f	32aLLL	f	.	.	.
.	.	.	.	.	.	32aaLLL	f	C none
.	.	.	.	32g#X	.	.	.	.
.	.	.	.	.	.	32gg#X	.	.
.	.	.	.	32a	.	.	.	.
.	.	.	.	.	.	32aa	.	.
.	.	.	.	32g#JJJ	.	.	.	.
.	.	.	.	.	.	32gg#	.	.
.	.	.	.	32aLLL	.	.	.	.
.	.	.	.	.	.	32aa	.	.
.	.	.	.	32gn	.	.	.	.
.	.	.	.	.	.	32ggn	.	.
.	.	.	.	32f#X	.	.	.	.
.	.	.	.	.	.	32ff	.	.
.	.	.	.	32eJJJ	.	.	.	.
.	.	.	.	.	.	32eeJJ	.	.
.	.	.	.	8d'	.	.	.	.
.	.	.	.	.	.	8dd'J	.	.
[4.d	.	4.F 4.A	.	32aLLL	.	.	.	.
!	!	!	!	!	!	!LO:TX:a:t=i6	!	!
.	.	.	.	.	.	32aaLLL	.	.
.	.	.	.	32g#X	.	.	.	.
.	.	.	.	.	.	32gg#X	.	.
.	.	.	.	32a	.	.	.	.
.	.	.	.	.	.	32aa	.	.
.	.	.	.	32g#JJJ	.	.	.	.
.	.	.	.	.	.	32gg#	.	.
.	.	.	.	32aLLL	.	.	.	.
.	.	.	.	.	.	32aa	.	.
.	.	.	.	32gn	.	.	.	.
.	.	.	.	.	.	32ggn	.	.
.	.	.	.	32f#	.	.	.	.
.	.	.	.	.	.	32ff	.	.
.	.	.	.	32eJJJ	.	.	.	.
.	.	.	.	.	.	32eeJJ	.	.
.	.	.	.	8d'	.	.	.	.
.	.	.	.	.	.	8dd'J	.	.
8.d]	.	4.F 4.A	.	32aLLL	.	.	.	.
.	.	.	.	.	.	32aaLLL	.	.
.	.	.	.	32g#X	.	.	.	.
.	.	.	.	.	.	32gg#X	.	.
.	.	.	.	32a	.	.	.	.
.	.	.	.	.	.	32aa	.	.
.	.	.	.	32g#JJJ	.	.	.	.
.	.	.	.	.	.	32gg#	.	.
.	.	.	.	32aLLL	.	.	.	.
.	.	.	.	.	.	32aa	.	.
.	.	.	.	32gn	.	.	.	.
.	.	.	.	.	.	32ggn	.	.
*clefF4	*	*	*	*	*	*	*	*
8FF'L	.	.	.	32f#	.	.	.	.
.	.	.	.	.	.	32ff	.	.
.	.	.	.	32eJJJ	.	.	.	.
.	.	.	.	.	.	32ee	.	.
.	.	.	.	32dLLL	.	.	.	.
.	.	.	.	.	.	32dd	.	.
.	.	.	.	32e	.	.	.	.
.	.	.	.	.	.	32ee	.	.
8FF'J	.	.	.	32f#	.	.	.	.
.	.	.	.	.	.	32ff	.	.
.	.	.	.	32dJJJ	.	.	.	.
.	.	.	.	.	.	32ddJJJ	.	.
.	.	16ryy	.	16ryy	.	.	.	.
.	.	.	.	.	.	16ryy	.	.
=102	=102	=102	=102	=102	=102	=102	=102	=102
!	!	!	!LO:DY:a	!	!	!	!	!
4GG	f	4B-	f f	4G 4e-X	.	.	.	.
.	.	.	.	.	.	32ee-XLLL	f	C none
.	.	.	.	.	.	32dd	.	.
.	.	.	.	.	.	32ee-	.	.
.	.	.	.	.	.	32ff	.	.
.	.	.	.	.	.	32gg	.	.
.	.	.	.	.	.	32ff#X	.	.
.	.	.	.	.	.	32gg	.	.
.	.	.	.	.	.	32aaJJ	.	.
8r	.	8r	.	8r	.	.	.	.
.	.	.	.	.	.	8bb-'J	.	.
4r	.	4r	.	4r	.	.	.	.
.	.	.	.	.	.	4r	.	.
8r	.	8r	.	8r	.	.	.	.
.	.	.	.	.	.	8r	.	.
4r	.	4r	.	4r	.	.	.	.
.	.	.	.	.	.	4r	.	.
8r	.	8r	.	8r	.	.	.	.
.	.	.	.	.	.	8r	.	.
=103	=103	=103	=103	=103	=103	=103	=103	=103
4AA	f	4c 4e-X	f	4A 4f#X	f	.	.	.
.	.	.	.	.	.	32ff#X'LLL	f	C none
.	.	.	.	.	.	32ee	.	.
.	.	.	.	.	.	32ff#	.	.
.	.	.	.	.	.	32gg	.	.
.	.	.	.	.	.	32aa	.	.
.	.	.	.	.	.	32gg	.	.
.	.	.	.	.	.	32aa	.	.
.	.	.	.	.	.	32bb-JJ	.	.
8r	.	8r	.	8r	.	.	.	.
.	.	.	.	.	.	8ccc'J	.	.
4r	.	4r	.	4r	.	.	.	.
.	.	.	.	.	.	4r	.	.
8r	.	8r	.	8r	.	.	.	.
.	.	.	.	.	.	8r	.	.
4r	.	4r	.	4r	.	.	.	.
.	.	.	.	.	.	4r	.	.
8r	.	8r	.	8r	.	.	.	.
.	.	.	.	.	.	8r	.	.
=104	=104	=104	=104	=104	=104	=104	=104	=104
4BB-	f	4B- 4d	f	4B- 4g	f	.	.	.
.	.	.	.	.	.	32ggLLL	f	C none
.	.	.	.	.	.	32ff#X	.	.
.	.	.	.	.	.	32gg	.	.
.	.	.	.	.	.	32aa	.	.
.	.	.	.	.	.	32bb-	.	.
.	.	.	.	.	.	32aa	.	.
.	.	.	.	.	.	32bb-	.	.
.	.	.	.	.	.	32cccJJ	.	.
8r	.	8r	.	8r	.	.	.	.
.	.	.	.	.	.	8dddJ	.	.
4r	.	4r	.	4r	.	.	.	.
.	.	.	.	.	.	4r	.	.
8r	.	8r	.	8r	.	.	.	.
.	.	.	.	.	.	8r	.	.
4r	.	4r	.	4r	.	.	.	.
.	.	.	.	.	.	4r	.	.
8r	.	8r	.	8r	.	.	.	.
.	.	.	.	.	.	8r	.	.
=105	=105	=105	=105	=105	=105	=105	=105	=105
16GG#XLL	ff	16BnLL	ff	[4.d 4.dd	ff	.	.	.
.	.	.	.	.	.	2.fff	ff	C none
16GG#	.	16B	.	.	.	.	.	.
16GG#	.	16B	.	.	.	.	.	.
16GG#	.	16B	.	.	.	.	.	.
16GG#	.	16B	.	.	.	.	.	.
16GG#JJ	.	16BJJ	.	.	.	.	.	.
4.GG#	.	4.B	.	4.d] 4.dd	.	.	.	.
4.AA	p	4.G	p	16B-LL	p	.	.	.
.	.	.	.	.	.	4.c#X	p	C none
.	.	.	.	16A	.	.	.	.
.	.	.	.	16A'	.	.	.	.
.	.	.	.	16A'	.	.	.	.
.	.	.	.	16A	.	.	.	.
.	.	.	.	16AJJ	.	.	.	.
=106	=106	=106	=106	=106	=106	=106	=106	=106
4DD	.	8FL	.	4A	.	.	.	.
.	.	.	.	.	.	4d	.	C none
.	.	8A~	.	.	.	.	.	.
8r	.	8A~J	.	8r	.	.	.	.
.	.	.	.	.	.	8r	.	.
4r	.	8A~L	.	4r	.	.	.	.
.	.	.	.	.	.	4r	.	.
.	.	8A~	.	.	.	.	.	.
8r	.	8A~J	.	8r	.	.	.	.
.	.	.	.	.	.	8r	.	.
4r	.	8A~L	.	4r	.	.	.	.
.	.	.	.	.	.	16dLL	.	.
.	.	.	.	.	.	16f	.	.
.	.	8A~	.	.	.	.	.	.
.	.	.	.	.	.	16a	.	.
.	.	.	.	.	.	16dd	.	.
8r	.	8A~J	.	8r	.	.	.	.
.	.	.	.	.	.	16ee	.	.
.	.	.	.	.	.	16ffJJ	.	.
=107	=107	=107	=107	=107	=107	=107	=107	=107
4.AA	.	8c#XL	.	16gLL	.	.	.	.
.	.	.	.	.	.	4ff	.	C none
.	.	.	.	16b-	.	.	.	.
.	.	8A	.	16cc#X	.	.	.	.
.	.	.	.	16b-	.	.	.	.
.	.	8AJ	.	16cc#	.	.	.	.
.	.	.	.	.	.	8ee	.	C none
.	.	.	.	16gJJ	.	.	.	.
4D	.	8A~L	.	4f	.	.	.	.
.	.	.	.	.	.	4dd	.	C none
.	.	8A~	.	.	.	.	.	.
8r	.	8A~J	.	8r	.	.	.	.
.	.	.	.	.	.	8r	.	.
4r	.	8A~L	.	4r	.	.	.	.
.	.	.	.	.	.	24dLL	.	.
.	.	.	.	.	.	24f	.	.
.	.	.	.	.	.	24aJJ	.	.
.	.	8A~	.	.	.	.	.	.
.	.	.	.	.	.	24cc#XLL	.	.
.	.	.	.	.	.	24dd	.	.
.	.	.	.	.	.	24eeJJ	.	.
8r	.	8A~J	.	8r	.	.	.	.
.	.	.	.	.	.	32ffLLL	.	.
.	.	.	.	.	.	48gg#X	.	.
.	.	.	.	.	.	48aa	.	.
.	.	.	.	.	.	48ff	.	.
.	.	.	.	.	.	32ddJJJ	.	.
=108	=108	=108	=108	=108	=108	=108	=108	=108
4.AA	.	8c#XL	.	16gLL	.	.	.	.
.	.	.	.	.	.	4ff	.	C none
.	.	.	.	16b-	.	.	.	.
.	.	8A	.	16cc#X	.	.	.	.
.	.	.	.	16b-	.	.	.	.
.	.	8AJ	.	16cc#	.	.	.	.
.	.	.	.	.	.	8ee	.	C none
.	.	.	.	16gJJ	.	.	.	.
4D	.	8A~L	.	8fL	.	.	.	.
.	.	.	.	.	.	4dd	.	C none
.	.	8A~	.	8a'	.	.	.	.
8r	.	8A~J	.	8a'J	.	.	.	.
.	.	.	.	.	.	8r	.	.
4r	.	8AL	.	8aL	.	.	.	.
.	.	.	.	.	.	24dLL	.	.
.	.	.	.	.	.	24f	.	.
.	.	.	.	.	.	24aJJ	.	.
.	.	8F	.	8f	.	.	.	.
.	.	.	.	.	.	24cc#XLL	.	.
.	.	.	.	.	.	24dd	.	.
.	.	.	.	.	.	24eeJJ	.	.
8r	.	8DJ	.	8dJ	.	.	.	.
.	.	.	.	.	.	24ff#XLL	.	.
.	.	.	.	.	.	24gg#X	.	.
.	.	.	.	.	.	24aaJJ	.	.
=109	=109	=109	=109	=109	=109	=109	=109	=109
[2.AA	.	[2.E [2.G	.	[2.c#X	.	.	.	.
.	.	.	.	.	.	16bb-LL	.	C none
.	.	.	.	.	.	16gg	.	.
.	.	.	.	.	.	16ee	.	.
.	.	.	.	.	.	16cc#X	.	.
.	.	.	.	.	.	16gg	.	.
.	.	.	.	.	.	16eeJJ	.	.
.	.	.	.	.	.	16cc#LL	.	.
.	.	.	.	.	.	16b-J	.	.
.	.	.	.	.	.	[8ee	.	.
.	.	.	.	.	.	32eeLL]	.	.
.	.	.	.	.	.	32cc#	.	.
.	.	.	.	.	.	32b-	.	.
.	.	.	.	.	.	32gJJJ	.	.
4.AA]	.	4.E] 4.G]	.	4.c#]	.	.	.	.
.	.	.	.	.	.	32cc#LLL	.	.
.	.	.	.	.	.	32b-	.	.
.	.	.	.	.	.	32g	.	.
.	.	.	.	.	.	32eJJJ	.	.
.	.	.	.	.	.	[8b-L	.	.
.	.	.	.	.	.	32b-LL]	.	.
.	.	.	.	.	.	32g	.	.
.	.	.	.	.	.	32e	.	.
.	.	.	.	.	.	32c#XJJJ	.	.
=110	=110	=110	=110	=110	=110	=110	=110	=110
!	!	!	!LO:DY:a	!	!	!	!	!
4DD	pp	4F	pp pp	4A	.	.	.	.
.	.	.	.	.	.	4d	pp	C none
8r	.	8r	.	8r	.	.	.	.
.	.	.	.	.	.	8r	.	.
4D	.	4F	.	4A	.	.	.	.
.	.	.	.	.	.	4d	.	C none
8r	.	8r	.	8r	.	.	.	.
.	.	.	.	.	.	8r	.	.
4r	.	4r	.	4r	.	.	.	.
.	.	.	.	.	.	4r	.	.
8r	.	8r	.	8r	.	.	.	.
.	.	.	.	.	.	8r	.	.
==	==	==	==	==	==	==	==	==
*-	*-	*-	*-	*-	*-	*-	*-	*-
!!!system-decoration: [(s1,s2,s3,s4)]
